Profiles/LUTs/AgX Punchy.cube
LUT_3D_SIZE 33
0 0 0
0 0 0
0 0 0
0 0 0
0.00027095977566205 -1.7523285350762e-05 -1.7523285350762e-05
0.002039615996182 -0.00013190432218835 -0.00013190432218835
0.0053086350671947 -0.00034331559436396 -0.00034331559436396
0.010733796283603 -0.00069416698534042 -0.00069416698534042
0.0194305293262 -0.0012510025408119 -0.0012505345512182
0.032951302826405 -0.0016828533262014 -0.0016809236258268
0.05362132191658 -0.0021666483953595 -0.0021632742136717
0.084216862916946 -0.0028009172528982 -0.0027955397963524
0.1273317784071 -0.0035630986094475 -0.0035547874867916
0.18433395028114 -0.0042426623404026 -0.0042300149798393
0.25443741679192 -0.0043365880846977 -0.0043175108730793
0.33475431799889 -0.0029917880892754 -0.0029631108045578
0.42161330580711 0.0009896457195282 0.0010322406888008
0.51182556152344 0.0091219395399094 0.0091844648122787
0.60366463661194 0.023160897195339 0.023250266909599
0.69553196430206 0.044988855719566 0.045111924409866
0.78471601009369 0.076263621449471 0.076425358653069
0.86745488643646 0.11780741810799 0.11800810694695
0.93985414505005 0.16921706497669 0.16945166885853
0.99895966053009 0.22891968488693 0.2291806191206
1.0436025857925 0.29495805501938 0.2952373623848
1.0743157863617 0.36565431952477 0.36594775319099
1.092720746994 0.44018012285233 0.44048529863358
1.1010555028915 0.51752918958664 0.51784068346024
1.1018544435501 0.59577441215515 0.59608387947083
1.0951704978943 0.67217493057251 0.67246901988983
1.0743201971054 0.74400705099106 0.74427390098572
1.055911898613 0.8074272274971 0.80765670537949
1.0404044389725 0.8608540892601 0.86104273796082
0 0 0
0 0 0
0 0 0
0 0 0
0.00027096390840597 -1.7523550923215e-05 -1.7523550923215e-05
0.0020396197214723 -0.00013190458412282 -0.00013190458412282
0.0053086401894689 -0.00034331588540226 -0.00034331588540226
0.010733796283603 -0.00069416698534042 -0.00069416698534042
0.019430523738265 -0.0012509832158685 -0.0012505375780165
0.032951295375824 -0.0016828048974276 -0.0016809301450849
0.053621307015419 -0.0021665953099728 -0.0021632835268974
0.084216855466366 -0.0028008613735437 -0.002795547246933
0.12733182311058 -0.0035630501806736 -0.0035548023879528
0.18433393537998 -0.0042426027357578 -0.0042300298810005
0.25443738698959 -0.0043365359306335 -0.0043175145983696
0.33475428819656 -0.0029917433857918 -0.002963125705719
0.42161330580711 0.00098967552185059 0.001032255589962
0.51182556152344 0.0091220065951347 0.009184442460537
0.60366463661194 0.023160934448242 0.023250252008438
0.69553190469742 0.044988915324211 0.045112028717995
0.78471601009369 0.076263576745987 0.076425358653069
0.86745482683182 0.11780753731728 0.11800807714462
0.93985414505005 0.16921706497669 0.16945166885853
0.99895966053009 0.22891968488693 0.2291806191206
1.0436025857925 0.29495805501938 0.2952373623848
1.0743157863617 0.36565431952477 0.36594775319099
1.092720746994 0.44018012285233 0.44048529863358
1.1010555028915 0.51752918958664 0.51784068346024
1.1018544435501 0.59577441215515 0.59608387947083
1.0951704978943 0.67217493057251 0.67246901988983
1.0743201971054 0.74400705099106 0.74427390098572
1.055911898613 0.8074272274971 0.80765670537949
1.0404044389725 0.8608540892601 0.86104273796082
0 0 0
0 0 0
0 0 0
0 0 0
0.00027810953906737 -1.7985668819165e-05 -1.7985668819165e-05
0.0020481548272073 -0.00013245656737126 -0.00013245656737126
0.0053171631880105 -0.00034386717015877 -0.00034386717015877
0.010742218233645 -0.00069471169263124 -0.00069471169263124
0.019428055733442 -0.0012096839491278 -0.001258309232071
0.03294013440609 -0.0016082432121038 -0.001692574005574
0.053608603775501 -0.0020866803824902 -0.0021756608039141
0.084203615784645 -0.0027202367782593 -0.0028080083429813
0.12731799483299 -0.0034829825162888 -0.0035671200603247
0.18431928753853 -0.0041631944477558 -0.0042421631515026
0.25442185997963 -0.004257507622242 -0.0043295361101627
0.33473762869835 -0.002912811934948 -0.0029750317335129
0.42159500718117 0.0010683238506317 0.0010204985737801
0.51180720329285 0.0091995820403099 0.0091728791594505
0.60364681482315 0.023236028850079 0.023239009082317
0.69551408290863 0.045059248805046 0.045101597905159
0.78470015525818 0.076326549053192 0.076416149735451
0.86744070053101 0.11786086857319 0.11800019443035
0.93984323740005 0.16925990581512 0.16944532096386
0.99895036220551 0.22895255684853 0.2291757017374
1.0435966253281 0.29498201608658 0.29523402452469
1.0743114948273 0.36567169427872 0.3659451007843
1.0927174091339 0.44019281864166 0.44048362970352
1.1010534763336 0.51753783226013 0.51783961057663
1.1018528938293 0.59578049182892 0.59608280658722
1.0951694250107 0.67217922210693 0.67246830463409
1.074319601059 0.74400949478149 0.74427276849747
1.0559115409851 0.80742865800858 0.80765634775162
1.0404042005539 0.86085492372513 0.86104249954224
0 0 0
0 0 0
0 0 0
0 0 0
0.00030939333373681 -2.0008825231344e-05 -2.0008825231344e-05
0.0020851949229836 -0.00013485198724084 -0.00013485198724084
0.0053540524095297 -0.00034625281114131 -0.00034625281114131
0.01077035907656 -0.00066467863507569 -0.00070538837462664
0.019393371418118 -0.00093778013251722 -0.0013128656428307
0.032889135181904 -0.0012753140181303 -0.0017455024644732
0.053553190082312 -0.0017390651628375 -0.0022296849638224
0.084146343171597 -0.0023712329566479 -0.0028618890792131
0.1272584348917 -0.0031365342438221 -0.0036203935742378
0.18425600230694 -0.0038192868232727 -0.0042947977781296
0.25435382127762 -0.0039152167737484 -0.0043814964592457
0.33466470241547 -0.002571165561676 -0.003026507794857
0.42151820659637 0.001408651471138 0.0009695366024971
0.51172828674316 0.0095353871583939 0.0091227740049362
0.60356777906418 0.023561120033264 0.02319074422121
0.69543904066086 0.045363709330559 0.045056536793709
0.78463232517242 0.076599210500717 0.076375693082809
0.86738252639771 0.11809194087982 0.11796605587006
0.93979668617249 0.16944485902786 0.16941803693771
0.99891531467438 0.22909380495548 0.22915497422218
1.0435698032379 0.29508626461029 0.29521840810776
1.0742919445038 0.36574703454971 0.36593413352966
1.0927037000656 0.44024693965912 0.44047552347183
1.1010435819626 0.51757591962814 0.5178337097168
1.1018459796906 0.59580689668655 0.59607893228531
1.095165014267 0.67219620943069 0.67246603965759
1.0743166208267 0.74402070045471 0.74427205324173
1.0559099912643 0.80743438005447 0.80765569210052
1.0404033660889 0.86085838079453 0.86104214191437
-7.0214970037341e-05 0.00027339858934283 -7.0214970037341e-05
-7.0215595769696e-05 0.00027340097585693 -7.0215595769696e-05
-7.1077098255046e-05 0.00027675545425154 -7.1077098255046e-05
-7.4826326454058e-05 0.0002913539938163 -7.4826326454058e-05
0.00030163727933541 0.00030145206255838 -0.00010874992585741
0.0020712646655738 0.00025567048578523 -0.00024228537222371
0.0053069582208991 0.00017190526705235 -0.00048643408808857
0.010673716664314 4.2262952774763e-05 -0.00089396559633315
0.019275056198239 -0.00015391176566482 -0.0014662924222648
0.032761093229055 -0.00045837182551622 -0.0018772557377815
0.053421087563038 -0.00091205537319183 -0.0023583518341184
0.084011003375053 -0.0015459731221199 -0.0029891319572926
0.12711776793003 -0.0023172218352556 -0.0037462543696165
0.18410643935204 -0.0030054152011871 -0.004419133067131
0.25419288873672 -0.0031041949987411 -0.0045046210289001
0.33449199795723 -0.0017615556716919 -0.0031485632061958
0.42133617401123 0.0022150054574013 0.00084879994392395
0.51154100894928 0.010330863296986 0.0090042650699615
0.60338163375854 0.024331033229828 0.023076482117176
0.6952617764473 0.046084344387054 0.044949769973755
0.78447079658508 0.077244386076927 0.076280370354652
0.86724495887756 0.11863884329796 0.11788527667522
0.93968456983566 0.16988331079483 0.16935347020626
0.99882924556732 0.22942869365215 0.22910557687283
1.0435063838959 0.29533270001411 0.29518234729767
1.0742464065552 0.36592543125153 0.36590790748596
1.0926706790924 0.44037461280823 0.44045707583427
1.1010200977325 0.51766604185104 0.51782029867172
1.1018300056458 0.59586852788925 0.59606957435608
1.0951544046402 0.67223674058914 0.6724601984024
1.0743099451065 0.74404644966125 0.74426794052124
1.0559058189392 0.80745047330856 0.80765300989151
1.0404013395309 0.86086636781693 0.86104089021683
-0.00047416484449059 0.0018462729640305 -0.00047416484449059
-0.00047416577581316 0.0018462766893208 -0.00047416577581316
-0.00047517055645585 0.0018501889426261 -0.00047517055645585
-0.0004795283311978 0.001867157057859 -0.0004795283311978
4.9842521548271e-05 0.0018724170513451 -0.00052474508993328
0.0018346456345171 0.0018341654213145 -0.00066162855364382
0.0050664283335209 0.0017621640581638 -0.00090872496366501
0.010427804663777 0.0016454106662422 -0.001319395378232
0.019022675231099 0.0014568197075278 -0.0017619598656893
0.032505977898836 0.0011563142761588 -0.0021367575973272
0.053163852542639 0.00069995503872633 -0.0026084249839187
0.083748646080494 5.8311969041824e-05 -0.0032357964664698
0.12684427201748 -0.00072240829467773 -0.0039907433092594
0.18381500244141 -0.0014184229075909 -0.0046614557504654
0.25387889146805 -0.001521710306406 -0.0047448314726353
0.3341551721096 -0.00018171221017838 -0.0033866241574287
0.42098116874695 0.0037880018353462 0.0006132647395134
0.51117616891861 0.011881671845913 0.0087734460830688
0.6030188202858 0.02583059668541 0.022854179143906
0.69491571187973 0.047487512230873 0.044742316007614
0.78415721654892 0.078500747680664 0.076094835996628
0.86697655916214 0.11970368027687 0.11772830784321
0.93946814537048 0.17073725163937 0.16922745108604
0.99866318702698 0.23008120059967 0.22900949418545
1.0433834791183 0.29581326246262 0.29511147737503
1.0741572380066 0.36627289652824 0.36585652828217
1.0926073789597 0.44062387943268 0.44041991233826
1.1009751558304 0.51784133911133 0.51779454946518
1.1017994880676 0.59598863124847 0.59605205059052
1.0951339006424 0.67231577634811 0.67244809865952
1.0742971897125 0.74409574270248 0.74426037073135
1.055898308754 0.80747944116592 0.80764907598495
1.0403966903687 0.86088436841965 0.86103790998459
-0.001215492375195 0.0047328067012131 -0.001215492375195
-0.0012154937721789 0.0047328118234873 -0.0012154937721789
-0.0012164921499789 0.0047366986982524 -0.0012164921499789
-0.0011913692578673 0.0047516562044621 -0.0012227273546159
-0.00040575070306659 0.0047401404008269 -0.0012844589073211
0.0013983186800033 0.0047001605853438 -0.0014224543701857
0.0046282866969705 0.0046273306943476 -0.0016691708005965
0.0099844373762608 0.0045067332684994 -0.001973485108465
0.018574984744191 0.0043111285194755 -0.002248375210911
0.032057855278254 0.0040037278085947 -0.002586368471384
0.052712790668011 0.0035387966781855 -0.0030457265675068
0.083287805318832 0.0028867516666651 -0.003668949007988
0.12636199593544 0.002095764502883 -0.0044217072427273
0.18329940736294 0.0013919770717621 -0.0050898902118206
0.25332263112068 0.0012837685644627 -0.0051703304052353
0.33355814218521 0.0026186481118202 -0.0038082078099251
0.42035195231438 0.0065744742751122 0.00019681453704834
0.5105305314064 0.014626547694206 0.0083656087517738
0.6023782491684 0.028479538857937 0.022462874650955
0.69430506229401 0.049965471029282 0.044377356767654
0.78360319137573 0.080719277262688 0.075768560171127
0.86650258302689 0.12158387899399 0.11745215952396
0.93908596038818 0.17224606871605 0.16900563240051
0.99836921691895 0.23123490810394 0.22883974015713
1.0431652069092 0.29666411876678 0.29498621821404
1.0739988088608 0.36688888072968 0.36576575040817
1.0924925804138 0.44106608629227 0.44035479426384
1.1008940935135 0.51815360784531 0.51774859428406
1.1017439365387 0.59620213508606 0.59602081775665
1.0950974225998 0.67245632410049 0.67242795228958
1.0742744207382 0.74418324232101 0.74424719810486
1.0558845996857 0.80753248929977 0.80764120817184
1.0403890609741 0.86091369390488 0.86103409528732
-0.0024051582440734 0.0095172915607691 -0.0024051582440734
-0.002405125182122 0.0095172896981239 -0.0024051587097347
-0.0023474711924791 0.0095172934234142 -0.0024071773514152
-0.0020278752781451 0.0095127252861857 -0.0024199695326388
-0.0011401702649891 0.0094934124499559 -0.0024563558399677
0.00067741749808192 0.0094501003623009 -0.0025258017703891
0.0039004476275295 0.0093731181696057 -0.0026343590579927
0.0092489393427968 0.0092472201213241 -0.0027895020321012
0.017836330458522 0.0090471059083939 -0.0030074389651418
0.031317874789238 0.0087338015437126 -0.0033188248053193
0.05196613073349 0.0082619087770581 -0.0037680938839912
0.082522168755531 0.0076025677844882 -0.0043887384235859
0.12555721402168 0.0068056229501963 -0.0051406770944595
0.1824367493391 0.0060969889163971 -0.0058068037033081
0.25238990783691 0.005985826253891 -0.0058828815817833
0.33255818486214 0.0073107033967972 -0.0045138224959373
0.4193000793457 0.0112349614501 -0.00049823522567749
0.50945311784744 0.019208081066608 0.0076872482895851
0.60131114721298 0.032894529402256 0.021813541650772
0.69328999519348 0.054087027907372 0.043773710727692
0.78268331289291 0.084404453635216 0.075230449438095
0.8657146692276 0.12471054494381 0.11699569225311
0.9384480714798 0.17475755512714 0.16863875091076
0.9978774189949 0.23315836489201 0.22855867445469
1.0428013801575 0.29808479547501 0.29477798938751
1.0737335681915 0.36791896820068 0.36561453342438
1.0923019647598 0.44180589914322 0.44024616479874
1.100759267807 0.51867568492889 0.51767182350159
1.1016510725021 0.59656006097794 0.59596824645996
1.0950362682343 0.67269164323807 0.67239302396774
1.0742361545563 0.74433070421219 0.74422603845596
1.0558615922928 0.80762076377869 0.80762857198715
1.0403759479523 0.86096411943436 0.86102670431137
-0.0036999424919486 0.017137149348855 -0.0036999424919486
-0.003699891269207 0.017137162387371 -0.0036999490112066
-0.0036136088892817 0.017135238274932 -0.0037020184099674
-0.0032322807237506 0.017126400023699 -0.0037114676088095
-0.0023066466674209 0.017104072496295 -0.0037350710481405
-0.00048389937728643 0.017059482634068 -0.0037814872339368
0.0027304636314511 0.016981687396765 -0.0038608750328422
0.0080713890492916 0.016854474321008 -0.0039872322231531
0.016655186191201 0.016652228310704 -0.004182736389339
0.030132938176394 0.016336217522621 -0.0044810008257627
0.050768084824085 0.015861643478274 -0.004925761371851
0.081290297210217 0.01520021352917 -0.005546797066927
0.12426073104143 0.014401083812118 -0.0062990859150887
0.18104490637779 0.013689521700144 -0.0069622546434402
0.2508864402771 0.013569541275501 -0.0070301368832588
0.33094835281372 0.014868564903736 -0.0056472346186638
0.41761112213135 0.018724791705608 -0.0016103833913803
0.50772893428802 0.026547871530056 0.0066078007221222
0.59960746765137 0.039948426187038 0.0207848995924
0.69167232513428 0.060657799243927 0.042821153998375
0.78121918439865 0.09027324616909 0.074382662773132
0.86445903778076 0.12969420850277 0.11627554893494
0.93743026256561 0.17876842617989 0.16805802285671
0.99709260463715 0.23623758554459 0.22811084985733
1.0422174930573 0.30036509037018 0.29444515705109
1.0733070373535 0.36957544088364 0.3653724193573
1.0919947624207 0.44299799203873 0.44007152318954
1.1005417108536 0.51951801776886 0.51754802465439
1.1015024185181 0.59713745117188 0.59588313102722
1.0949375629425 0.67307150363922 0.67233747243881
1.0741740465164 0.7445695400238 0.74419057369232
1.0558248758316 0.80776214599609 0.80760729312897
1.040354847908 0.86104488372803 0.86101526021957
-0.0055442526936531 0.029080139473081 -0.0055442526936531
-0.0055441930890083 0.02908013574779 -0.005544250831008
-0.0054533965885639 0.029077894985676 -0.0055463593453169
-0.0050597582012415 0.029068186879158 -0.0055554807186127
-0.0041258465498686 0.029045091941953 -0.0055771842598915
-0.0023078508675098 0.029000354930758 -0.0056191384792328
0.00089477747678757 0.028922490775585 -0.0056918747723103
0.0062257843092084 0.028794582933187 -0.0058110151439905
0.014804708771408 0.028590500354767 -0.0060006510466337
0.028277020901442 0.028272058814764 -0.0062962528318167
0.048890754580498 0.027793906629086 -0.0067414436489344
0.0793586820364 0.027127446606755 -0.0073634088039398
0.12222866714001 0.026320641860366 -0.0081137642264366
0.17886544764042 0.02559482678771 -0.0087680630385876
0.2485363483429 0.025441452860832 -0.0088175907731056
0.32843944430351 0.026668339967728 -0.0074050650000572
0.41498756408691 0.030377648770809 -0.0033246353268623
0.50506108999252 0.037920661270618 0.0049557387828827
0.59698116779327 0.050836637616158 0.01922070980072
0.68918377161026 0.070777431130409 0.04137872159481
0.77896791696548 0.099303036928177 0.073101297020912
0.86252599954605 0.13737158477306 0.11518450081348
0.93585854768753 0.18496453762054 0.16717395186424
0.99587392807007 0.24101291596889 0.22742532193661
1.0413076877594 0.30391490459442 0.2939325273037
1.0726425647736 0.3721644282341 0.36499592661858
1.0915131568909 0.44486531615257 0.43979915976524
1.1002004146576 0.52083915472031 0.51735472679138
1.1012674570084 0.59804463386536 0.59575003385544
1.0947823524475 0.67366939783096 0.67224895954132
1.0740766525269 0.74494433403015 0.74413567781448
1.0557667016983 0.80798614025116 0.80757492780685
1.0403214693069 0.86117380857468 0.86099624633789
-0.0083093345165253 0.047357000410557 -0.0083093345165253
-0.0083092711865902 0.047356996685266 -0.0083093345165253
-0.0082184746861458 0.047354660928249 -0.0083114057779312
-0.0078255385160446 0.047344692051411 -0.0083204247057438
-0.0068961009383202 0.04732121527195 -0.0083416551351547
-0.0050890743732452 0.04727578908205 -0.0083825662732124
-0.0019002929329872 0.047196384519339 -0.0084540583193302
0.0034205168485641 0.047065012156963 -0.0085722357034683
0.011995056644082 0.046854466199875 -0.0087618492543697
0.025458797812462 0.046525727957487 -0.0090581588447094
0.046040486544371 0.046032682061195 -0.0095035806298256
0.076426863670349 0.045344617217779 -0.010122198611498
0.11914583295584 0.044505275785923 -0.01086101680994
0.17556345462799 0.043725326657295 -0.011490546166897
0.2449831366539 0.043475598096848 -0.011498875916004
0.32465654611588 0.04453194886446 -0.0100252404809
0.41104751825333 0.047940745949745 -0.0058595836162567
0.50106900930405 0.05498755723238 0.0025322586297989
0.5930677652359 0.067098706960678 0.016944259405136
0.68548285961151 0.085852615535259 0.039290994405746
0.77561843395233 0.11275418102741 0.071247205138206
0.85964202880859 0.14883314073086 0.11359937489033
0.93350201845169 0.19425728917122 0.16587814688683
0.9940367937088 0.2482171356678 0.22641006112099
1.039927482605 0.3093027472496 0.29316455125809
1.0716260671616 0.37611499428749 0.36442732810974
1.0907762050629 0.44772565364838 0.43938431143761
1.0996760129929 0.52286869287491 0.51705926656723
1.1009064912796 0.59944033622742 0.5955463051796
1.0945432186127 0.67458993196487 0.67211449146271
1.073926448822 0.7455227971077 0.74405109882355
1.0556769371033 0.80833196640015 0.80752348899841
1.040270447731 0.86137014627457 0.86096727848053
-0.012315355241299 0.074349090456963 -0.012315355241299
-0.012315291911364 0.074349090456963 -0.012315355241299
-0.012225281447172 0.074346646666527 -0.012317378073931
-0.011835746467113 0.074336141347885 -0.012326121330261
-0.010913666337729 0.074311278760433 -0.012346815317869
-0.0091180354356766 0.074263148009777 -0.012386903166771
-0.0059419870376587 0.074178375303745 -0.012457396835089
-0.00062946230173111 0.074037127196789 -0.012574657797813
0.007940661162138 0.073810018599033 -0.012763164937496
0.021391611546278 0.073455482721329 -0.013057123869658
0.041925586760044 0.072923801839352 -0.013495407998562
0.07219111174345 0.072179287672043 -0.014097802340984
0.11468620598316 0.071255631744862 -0.014804050326347
0.17078319191933 0.070344366133213 -0.015378601849079
0.23983830213547 0.06988450884819 -0.015305072069168
0.31918489933014 0.070600107312202 -0.013718314468861
0.40535917878151 0.073469921946526 -0.0094050318002701
0.49532321095467 0.079680986702442 -0.00082683563232422
0.58744382858276 0.090555995702744 0.013810247182846
0.68017113208771 0.10754808038473 0.03642874956131
0.77080428600311 0.13212387263775 0.068702980875969
0.85547643899918 0.16540797054768 0.11140574514866
0.93007135391235 0.20779514312744 0.16405920684338
0.99133610725403 0.25880479812622 0.22496046125889
1.0378805398941 0.31729245185852 0.2920503616333
1.0701073408127 0.38202092051506 0.36358976364136
1.0896670818329 0.45202600955963 0.43876832723618
1.0988847017288 0.5259313583374 0.51661705970764
1.100360751152 0.60155218839645 0.59523993730545
1.0941805839539 0.67598605155945 0.67191129922867
1.0736984014511 0.7464005947113 0.74392288923264
1.0555404424667 0.8088573217392 0.80744707584381
1.0401921272278 0.86167168617249 0.86092299222946
-0.017662644386292 0.11221633851528 -0.017662644386292
-0.017662584781647 0.1122163310647 -0.017662651836872
-0.017573155462742 0.11221361160278 -0.017664581537247
-0.017185911536217 0.11220188438892 -0.017672963440418
-0.01626955717802 0.1121740937233 -0.017692662775517
-0.01448193192482 0.11212003231049 -0.017731167376041
-0.011313259601593 0.11202420294285 -0.017799161374569
-0.0060062259435654 0.11186416447163 -0.017912603914738
0.0025583505630493 0.11160620301962 -0.01809548586607
0.015987016260624 0.11120371520519 -0.018378891050816
0.036443911492825 0.11060055345297 -0.018796928226948
0.06652545183897 0.10975079238415 -0.019361481070518
0.10868764668703 0.10867112129927 -0.020004235208035
0.16431415081024 0.10752353072166 -0.020482368767262
0.23283711075783 0.10670004785061 -0.020270869135857
0.31170883774757 0.10685808956623 -0.01850514113903
0.39756748080254 0.1088889837265 -0.013969421386719
0.48744404315948 0.11385449767113 -0.005120724439621
0.57972717285156 0.12295462936163 0.0098268240690231
0.67286574840546 0.1375240534544 0.032790333032608
0.76414620876312 0.15899281203747 0.065438985824585
0.84966993331909 0.18855544924736 0.10855194926262
0.92523628473282 0.2268975675106 0.16163957118988
0.98748135566711 0.27392947673798 0.22298231720924
1.0349179506302 0.32885575294495 0.29048943519592
1.0678853988647 0.39066618680954 0.36239206790924
1.0880311727524 0.45837169885635 0.43787360191345
1.0977108478546 0.53047698736191 0.51596862077713
1.0995464324951 0.60469931364059 0.59478712081909
1.0936385393143 0.6780720949173 0.67161011695862
1.073356628418 0.74771618843079 0.74373155832291
1.0553356409073 0.80964571237564 0.80733239650726
1.0400748252869 0.86212301254272 0.8608570098877
-0.023928105831146 0.16197969019413 -0.023928105831146
-0.023928053677082 0.16197967529297 -0.023928113281727
-0.023838937282562 0.16197647154331 -0.023929908871651
-0.023453190922737 0.16196276247501 -0.023937731981277
-0.02253932505846 0.16193036735058 -0.023956216871738
-0.020754933357239 0.16186702251434 -0.023992314934731
-0.017589405179024 0.1617548763752 -0.02405634522438
-0.01228740811348 0.16156703233719 -0.024163126945496
-0.0037348717451096 0.16126461327076 -0.024334363639355
0.0096440389752388 0.16079433262348 -0.024597577750683
0.029964774847031 0.16009001433849 -0.024979457259178
0.059755347669125 0.15909153223038 -0.025483570992947
0.10141269862652 0.15779310464859 -0.026028960943222
0.15633842349052 0.15631692111492 -0.026366323232651
0.22406783699989 0.15499253571033 -0.025965020060539
0.30222550034523 0.15439043939114 -0.023958072066307
0.38759016990662 0.15529343485832 -0.019134804606438
0.47727957367897 0.15864033997059 -0.0099615901708603
0.56970775127411 0.16548323631287 0.0053362101316452
0.66330969333649 0.17702770233154 0.02865543961525
0.75535583496094 0.19463731348515 0.061664879322052
0.84190154075623 0.21961414813995 0.10515080392361
0.91865706443787 0.25292414426804 0.15864105522633
0.98214530944824 0.29488277435303 0.22043235599995
1.0307424068451 0.34516400098801 0.28839841485023
1.0647029876709 0.40304505825043 0.36073726415634
1.085661649704 0.46756428480148 0.4366095662117
1.0959966182709 0.53711241483688 0.51503974199295
1.0983507633209 0.60931974649429 0.59413230419159
1.0928392410278 0.68114799261093 0.67116981744766
1.0728509426117 0.74966239929199 0.74345111846924
