Profiles/LUTs/AgX Half.cube
LUT_3D_SIZE 5
0 0 0
0.029113423079252 -0.001181349158287 -0.0011797752231359
0.43487966060638 0.024939671158791 0.024990782141685
0.98027789592743 0.36350336670876 0.36374920606613
1.0205842256546 0.88085740804672 0.88100552558899
-0.0026013217866421 0.027211006730795 -0.0026013199239969
0.027156870812178 0.02715309523046 -0.0020786821842194
0.43192023038864 0.047443427145481 0.023860082030296
0.97948545217514 0.36868369579315 0.36348038911819
1.0205588340759 0.88102066516876 0.88099730014801
0.020120888948441 0.4023050069809 0.020120918750763
0.041826754808426 0.40164911746979 0.020338147878647
0.39514550566673 0.39511784911156 0.041604071855545
0.96023803949356 0.49495878815651 0.36136689782143
1.019722700119 0.88637840747833 0.88073319196701
0.43589416146278 0.91961574554443 0.43589422106743
0.43900603055954 0.91949152946472 0.43592596054077
0.52548432350159 0.91607242822647 0.43774822354317
0.90393882989883 0.903923869133 0.51380395889282
1.010068655014 0.94777917861938 0.88229256868362
0.93196374177933 1.0038410425186 0.93196380138397
0.93202692270279 1.0038384199142 0.93196386098862
0.9341225028038 1.0037500858307 0.93198812007904
0.96429568529129 1.0024683475494 0.93301731348038
1.0005371570587 1.0005371570587 0.96173256635666
0.0010145117994398 0.0010117581114173 0.030811356380582
0.030692022293806 0.001461579464376 0.030685998499393
0.43476414680481 0.026669934391975 0.050348326563835
0.98014032840729 0.36389470100403 0.36958241462708
1.020579457283 0.8808690905571 0.88119035959244
7.9041346907616e-05 0.028885465115309 0.028883604332805
0.028867989778519 0.028862370178103 0.028862025588751
0.43182921409607 0.049025222659111 0.049070745706558
0.97934967279434 0.3690632879734 0.36930227279663
1.0205539464951 0.88103318214417 0.88118147850037
0.021832048892975 0.40238666534424 0.043257653713226
0.043413013219833 0.40173643827438 0.043408274650574
0.39530497789383 0.39527696371078 0.062450438737869
0.96014010906219 0.49513417482376 0.36680614948273
1.019718170166 0.88638907670975 0.88091707229614
0.43614104390144 0.91957116127014 0.43921837210655
0.43924903869629 0.91944688558578 0.43924835324287
0.52563631534576 0.91603261232376 0.4410003721714
0.90392088890076 0.90390527248383 0.51599860191345
1.0100659132004 0.94778090715408 0.88245415687561
0.93196868896484 1.003839969635 0.93203097581863
0.93203121423721 1.0038372278214 0.93203121423721
0.93412631750107 1.0037490129471 0.93205505609512
0.9642978310585 1.0024673938751 0.93308162689209
1.0005366802216 1.0005366802216 0.96176505088806
0.06671205163002 0.066656224429607 0.44829720258713
0.088269114494324 0.066767275333405 0.44753906130791
0.43774929642677 0.084616355597973 0.43770557641983
0.97631114721298 0.37737110257149 0.51124340295792
1.0204185247421 0.8812872171402 0.88721615076065
0.065634213387966 0.086968503892422 0.44561085104942
0.087076455354691 0.087021291255951 0.44486704468727
0.43542340397835 0.1029305011034 0.43537956476212
0.97558057308197 0.38217520713806 0.51078367233276
1.0203931331635 0.88144981861115 0.8872064948082
0.079093664884567 0.4105464220047 0.41053289175034
0.096939042210579 0.41004368662834 0.41002997756004
0.40517523884773 0.40513700246811 0.40513437986374
0.9575115442276 0.50161492824554 0.50173288583755
1.0195635557175 0.8867701292038 0.88690614700317
0.44461759924889 0.91835242509842 0.5308473110199
0.44759914278984 0.91823422908783 0.53083038330078
0.5309853553772 0.91496700048447 0.53096896409988
0.90344077348709 0.90342539548874 0.57998508214951
1.0099703073502 0.94785904884338 0.88771992921829
0.93213963508606 1.003800868988 0.93426871299744
0.93220150470734 1.0037982463837 0.93426913022995
0.93428879976273 1.003710269928 0.93428879976273
0.96436268091202 1.0024341344833 0.93522155284882
1.0005218982697 1.0005218982697 0.96284407377243
0.49596932530403 0.49580296874046 0.97749710083008
0.4990336894989 0.49581596255302 0.9773553609848
0.58420312404633 0.49699020385742 0.97334170341492
0.95077204704285 0.56183731555939 0.95074635744095
1.0179448127747 0.89014387130737 0.95573198795319
0.49580991268158 0.49869522452354 0.97705227136612
0.49887084960938 0.49870634078979 0.97691106796265
0.58396029472351 0.49982038140297 0.97290945053101
0.95048886537552 0.56375330686569 0.95046353340149
1.0179228782654 0.89028537273407 0.95571529865265
0.49303692579269 0.57852751016617 0.96477055549622
0.49598115682602 0.57849884033203 0.96464169025421
0.57835006713867 0.57823085784912 0.96099388599396
0.94230175018311 0.61966687440872 0.94227731227875
1.0172039270401 0.8949254155159 0.95516699552536
0.58221626281738 0.91581857204437 0.91581010818481
0.58377110958099 0.91575968265533 0.91575235128403
0.63057005405426 0.91402637958527 0.91401964426041
0.90676492452621 0.90674436092377 0.90674358606339
1.0086414813995 0.95003712177277 0.950075507164
0.93576383590698 1.0031958818436 0.96601659059525
0.93582183122635 1.0031934976578 0.96601611375809
0.93774574995041 1.0031131505966 0.96598696708679
0.96587562561035 1.0019335746765 0.96587139368057
1.0002861022949 1.0002861022949 0.98007810115814
0.94134795665741 0.94128495454788 1.0123378038406
0.94141000509262 0.94128435850143 1.0123348236084
0.94345736503601 0.94129478931427 1.0122346878052
0.97294199466705 0.94202929735184 1.0106976032257
1.0051535367966 0.96671783924103 1.0051535367966
0.94134533405304 0.94134259223938 1.0123286247253
0.94140666723251 0.94134241342545 1.0123256444931
0.94345366954803 0.94135266542435 1.0122255086899
0.97293639183044 0.94208467006683 1.0106890201569
1.0051491260529 0.96674597263336 1.0051491260529
0.94124108552933 0.94327431917191 1.0120210647583
0.94130235910416 0.94327479600906 1.0120179653168
0.94334268569946 0.94328117370605 1.0119187831879
0.9727423787117 0.94393479824066 1.0103989839554
1.0050044059753 0.96768373250961 1.0050044059753
0.94092816114426 0.97076797485352 1.007587313652
0.94098508358002 0.97076642513275 1.007584810257
0.94287419319153 0.97073185443878 1.0074995756149
0.97052508592606 0.97049230337143 1.0062083005905
1.0026887655258 0.98268258571625 1.0026887655258
0.97792029380798 1.0009279251099 1.0009279251099
0.97793889045715 1.0009270906448 1.0009270906448
0.97857600450516 1.0009007453918 1.0009007453918
0.98944771289825 1.0004506111145 1.0004506111145
1.0000132322311 1.0000132322311 1.0000132322311
