Profiles/LUTs/AgX Punchy.cube
LUT_3D_SIZE 5
0 0 0
0.0194305293262 -0.0012510025408119 -0.0012505345512182
0.42161330580711 0.0009896457195282 0.0010322406888008
1.0436025857925 0.29495805501938 0.2952373623848
1.0404044389725 0.8608540892601 0.86104273796082
-0.0036999424919486 0.017137149348855 -0.0036999424919486
0.016655186191201 0.016652228310704 -0.004182736389339
0.41761112213135 0.018724791705608 -0.0016103833913803
1.0422174930573 0.30036509037018 0.29444515705109
1.040354847908 0.86104488372803 0.86101526021957
-0.032071143388748 0.36683908104897 -0.032071143388748
-0.012701779603958 0.36583057045937 -0.032364428043365
0.35051339864731 0.35048195719719 -0.024125814437866
1.0078166723251 0.43479084968567 0.27949824929237
1.038726568222 0.86731159687042 0.86011570692062
0.33329528570175 0.92853385210037 0.33329528570175
0.33687877655029 0.92830586433411 0.33325019478798
0.43742653727531 0.92193746566772 0.33303084969521
0.89549249410629 0.89547348022461 0.41110417246819
1.0198355913162 0.93942475318909 0.85552328824997
0.91482448577881 1.0075607299805 0.91482448577881
0.91490387916565 1.0075554847717 0.91482275724411
0.91753673553467 1.0073820352554 0.91479402780533
0.95551484823227 1.0048607587814 0.91524219512939
1.0010493993759 1.0010493993759 0.9508883357048
0.00014258606825024 0.00014114531222731 0.020977344363928
0.020497934892774 -0.00034232717007399 0.020493201911449
0.42135673761368 0.0021049305796623 0.022522769868374
1.0433554649353 0.29530984163284 0.30178070068359
1.0403952598572 0.86086571216583 0.86127513647079
-0.0026463726535439 0.018165893852711 0.018164416775107
0.017686359584332 0.017681900411844 0.017681621015072
0.41736173629761 0.019811309874058 0.01985165476799
1.0419733524323 0.30070561170578 0.30097767710686
1.0403454303741 0.8610577583313 0.86124646663666
-0.030792415142059 0.36678150296211 -0.011160641908646
-0.011477649211884 0.36577665805817 -0.011482089757919
0.35054576396942 0.35051387548447 -0.004401832818985
1.0076355934143 0.43493086099625 0.2856462597847
1.0387176275253 0.86732220649719 0.86034679412842
0.33354833722115 0.92844527959824 0.33717373013496
0.33712768554688 0.92821741104126 0.33712685108185
0.43757548928261 0.92185717821121 0.3368319272995
0.89545106887817 0.89543122053146 0.41372177004814
1.0198299884796 0.9394251704216 0.8557276725769
0.91483020782471 1.007558465004 0.91490995883942
0.91490864753723 1.0075533390045 0.91490864753723
0.9175409078598 1.0073798894882 0.91487926244736
0.9555167555809 1.0048588514328 0.91532421112061
1.0010485649109 1.0010485649109 0.95092988014221
0.041727717965841 0.041677474975586 0.44013839960098
0.060946695506573 0.041252486407757 0.43900057673454
0.41941606998444 0.045127466320992 0.41936627030373
1.0363619327545 0.30796417593956 0.46358534693718
1.0400817394257 0.86129009723663 0.86884772777557
0.039141695946455 0.058708548545837 0.4362313747406
0.058312021195889 0.058260649442673 0.43510329723358
0.41583305597305 0.061203844845295 0.41578304767609
1.0350774526596 0.3130059838295 0.46261930465698
1.0400323867798 0.86148035526276 0.86881840229034
0.016400873661041 0.37134456634521 0.37132906913757
0.03352278470993 0.37047904729843 0.37046340107918
0.35761886835098 0.35757520794868 0.35757207870483
1.002641916275 0.4406566619873 0.44079622626305
1.0384165048599 0.86770403385162 0.86787742376328
0.34243044257164 0.92594665288925 0.44511982798576
0.34587183594704 0.92572921514511 0.44502320885658
0.44301101565361 0.91962438821793 0.44299134612083
0.89428043365479 0.89426076412201 0.49051570892334
1.0196431875229 0.93946176767349 0.862384557724
0.91502314805984 1.0074816942215 0.91775900125504
0.91510081291199 1.007476568222 0.9177577495575
0.9177234172821 1.0073039531708 0.9177234172821
0.95557802915573 1.0047935247421 0.91805219650269
1.0010194778442 1.0010194778442 0.95231187343597
0.44466990232468 0.44447383284569 1.0373339653015
0.44818848371506 0.44439601898193 1.0370746850967
0.54686009883881 0.44304835796356 1.0296378135681
0.98428285121918 0.50132942199707 0.98425000905991
1.0352538824081 0.87090998888016 0.95494168996811
0.44419524073601 0.44759607315063 1.0365245342255
0.44771036505699 0.44751635193825 1.0362659692764
0.54629933834076 0.44610953330994 1.0288506746292
0.98375511169434 0.50344502925873 0.98372256755829
1.0352112054825 0.87107563018799 0.95490574836731
0.4327509701252 0.53459620475769 1.0139135122299
0.43614274263382 0.53447860479355 1.0136760473251
0.53186184167862 0.53171843290329 1.0068732500076
0.96834307909012 0.56557124853134 0.96831166744232
1.0338088274002 0.87651413679123 0.95372301340103
0.49878135323524 0.91514813899994 0.91513735055923
0.50062990188599 0.91503489017487 0.91502553224564
0.55650949478149 0.91165536642075 0.91164666414261
0.8945837020874 0.89455741643906 0.89455628395081
1.017037153244 0.94136768579483 0.94141691923141
0.9192687869072 1.0062922239304 0.95822781324387
0.91934162378311 1.0062874555588 0.95822542905807
0.92176067829132 1.0061296224594 0.95813363790512
0.95719033479691 1.0038081407547 0.95718491077423
1.0005540847778 1.0005540847778 0.97440487146378
0.93271601200104 0.93263512849808 1.0243120193481
0.93279385566711 0.93263238668442 1.0243062973022
0.93535697460175 0.9325777888298 1.0241096019745
0.97227871417999 0.93247431516647 1.0210866928101
1.0101674795151 0.96048223972321 1.0101674795151
0.93270641565323 0.93270295858383 1.0242938995361
0.93278330564499 0.93270069360733 1.0242881774902
0.93534600734711 0.93264597654343 1.0240916013718
0.97226566076279 0.93253946304321 1.0210696458817
1.0101588964462 0.96051561832428 1.0101588964462
0.93236374855042 0.93497681617737 1.0236899852753
0.93244045972824 0.93497532606125 1.0236840248108
0.93499529361725 0.93491631746292 1.0234892368317
0.97181981801987 0.93472081422806 1.0204999446869
1.0098736286163 0.96162664890289 1.0098736286163
0.9289373755455 0.96736687421799 1.014967083931
0.92900866270065 0.96736317873001 1.0149621963501
0.93137967586517 0.9672611951828 1.014794588089
0.96611851453781 0.96607625484467 1.0122528076172
1.005304813385 0.97941642999649 1.005304813385
0.97205549478531 1.0018228292465 1.0018228292465
0.97207903862 1.0018212795258 1.0018212795258
0.97288435697556 1.0017691850662 1.0017691850662
0.98663514852524 1.0008798837662 1.0008798837662
1.0000146627426 1.0000146627426 1.0000146627426
