Profiles/LUTs/AgX Half.cube
LUT_3D_SIZE 33
0 0 0
0 0 0
0 0 0
0 0 0
0.00068212806945667 -2.8240319807082e-05 -2.8240319807082e-05
0.0040184664539993 -0.0001663658185862 -0.0001663658185862
0.0093121342360973 -0.00038552528712898 -0.00038552528712898
0.017285879701376 -0.00071564083918929 -0.00071564083918929
0.029113423079252 -0.001181349158287 -0.0011797752231359
0.046276245266199 -0.00078929401934147 -0.00078546535223722
0.070978701114655 -6.491132080555e-05 -5.9030018746853e-05
0.10553839057684 0.00099111348390579 0.00099970959126949
0.15176862478256 0.0025509968400002 0.0025633983314037
0.2100784778595 0.0049727708101273 0.0049905516207218
0.27888298034668 0.0088657215237617 0.0088910795748234
0.35497251152992 0.015125386416912 0.015161566436291
0.43487966060638 0.024939671158791 0.024990782141685
0.51594489812851 0.039755329489708 0.03982675075531
0.59696596860886 0.061181582510471 0.061278969049454
0.67694437503815 0.090772792696953 0.090901091694832
0.75394254922867 0.12961962819099 0.12978126108646
0.82520973682404 0.17780528962612 0.17799836397171
0.88788342475891 0.2342224419117 0.23444066941738
0.93982374668121 0.29682692885399 0.29706248641014
0.98027789592743 0.36350336670876 0.36374920606613
1.0098007917404 0.4326688349247 0.43292135000229
1.0297957658768 0.50365245342255 0.50391000509262
1.0420706272125 0.57568418979645 0.5759425163269
1.0485517978668 0.64716148376465 0.64741426706314
1.0490852594376 0.7157786488533 0.71601581573486
1.0381429195404 0.77915620803833 0.77936893701553
1.0285778045654 0.8345575928688 0.83473896980286
1.0205842256546 0.88085740804672 0.88100552558899
0 0 0
0 0 0
0 0 0
0 0 0
0.00068213703343645 -2.8240698156878e-05 -2.8240698156878e-05
0.0040184743702412 -0.00016636610962451 -0.00016636610962451
0.0093121435493231 -0.00038552575279027 -0.00038552575279027
0.017285879701376 -0.00071564083918929 -0.00071564083918929
0.029113413766026 -0.0011812783777714 -0.0011797808110714
0.046276230365038 -0.00078918971121311 -0.00078547094017267
0.070978686213493 -6.4809806644917e-05 -5.9033744037151e-05
0.10553837567568 0.0009912047535181 0.00099970586597919
0.15176862478256 0.0025510787963867 0.0025633946061134
0.21007846295834 0.0049728564918041 0.0049905404448509
0.27888298034668 0.0088657960295677 0.0088910833001137
0.35497251152992 0.015125453472137 0.01516155153513
0.43487966060638 0.024939715862274 0.024990789592266
0.51594483852386 0.039755418896675 0.039826743304729
0.5969660282135 0.061181604862213 0.061278969049454
0.67694437503815 0.090772874653339 0.090901181101799
0.75394254922867 0.12961956858635 0.12978126108646
0.82520973682404 0.17780542373657 0.17799834907055
0.88788342475891 0.2342224419117 0.23444066941738
0.93982374668121 0.29682692885399 0.29706248641014
0.98027789592743 0.36350336670876 0.36374920606613
1.0098007917404 0.4326688349247 0.43292135000229
1.0297957658768 0.50365245342255 0.50391000509262
1.0420706272125 0.57568418979645 0.5759425163269
1.0485517978668 0.64716148376465 0.64741426706314
1.0490852594376 0.7157786488533 0.71601581573486
1.0381429195404 0.77915620803833 0.77936893701553
1.0285778045654 0.8345575928688 0.83473896980286
1.0205842256546 0.88085740804672 0.88100552558899
0 0 0
0 0 0
0 0 0
0 0 0
0.00069791625719517 -2.889396273531e-05 -2.889396273531e-05
0.0040332446806133 -0.00016697763931006 -0.00016697763931006
0.0093252779915929 -0.00038606952875853 -0.00038606952875853
0.017297796905041 -0.00071613420732319 -0.00071613420732319
0.029104141518474 -0.0010514645837247 -0.0011887275613844
0.046261448413134 -0.00062876753509045 -0.00079434458166361
0.070964455604553 8.7041407823563e-05 -6.7421235144138e-05
0.10552498698235 0.0011319685727358 0.00099191069602966
0.15175566077232 0.002681590616703 0.0025561861693859
0.21006551384926 0.0050947144627571 0.0049838535487652
0.27886992692947 0.0089805014431477 0.0088848099112511
0.35495913028717 0.015234105288982 0.015155658125877
0.43486550450325 0.025042593479156 0.024985261261463
0.51593142747879 0.039852030575275 0.039821572601795
0.5969535112381 0.061270847916603 0.061274126172066
0.6769323348999 0.0908527597785 0.090896904468536
0.75393223762512 0.12968817353249 0.12977772951126
0.82520073652267 0.17786133289337 0.17799538373947
0.88787686824799 0.23426589369774 0.23443832993507
0.9398181438446 0.29685923457146 0.29706066846848
0.98027449846268 0.36352640390396 0.36374813318253
1.0097984075546 0.43268516659737 0.43292045593262
1.0297938585281 0.50366419553757 0.50390958786011
1.0420696735382 0.57569193840027 0.57594233751297
1.0485509634018 0.64716684818268 0.64741390943527
1.0490846633911 0.71578246355057 0.71601557731628
1.0381425619125 0.77915835380554 0.77936834096909
1.0285775661469 0.83455890417099 0.83473879098892
1.0205841064453 0.88085812330246 0.8810054063797
0 0 0
0 0 0
0 0 0
0 0 0
0.00076643616193905 -3.1730698538013e-05 -3.1730698538013e-05
0.0040972596034408 -0.00016962783411145 -0.00016962783411145
0.0093820858746767 -0.00038842135109007 -0.00038842135109007
0.01733236014843 -0.00060812151059508 -0.0007352742832154
0.029046950861812 -0.00037976447492838 -0.0012396122328937
0.046198334544897 5.9080310165882e-05 -0.00083188991993666
0.07090412825346 0.00073631573468447 -0.00010261498391628
0.10546789318323 0.0017358362674713 0.00095905549824238
0.15170016884804 0.0032434277236462 0.0025254972279072
0.21000973880291 0.0056208223104477 0.0049550794064999
0.27881288528442 0.0094762593507767 0.008857898414135
0.35490071773529 0.01570376008749 0.015130341053009
0.43480670452118 0.025487475097179 0.024961397051811
0.51587355136871 0.040270119905472 0.03979916870594
0.59689807891846 0.061656966805458 0.061253562569618
0.67688173055649 0.091198548674583 0.090878590941429
0.75388836860657 0.12998515367508 0.12976188957691
0.8251645565033 0.1781035810709 0.17798256874084
0.88784897327423 0.23445330560207 0.23442840576172
0.93979775905609 0.29699820280075 0.29705345630646
0.98025912046432 0.36362633109093 0.36374258995056
1.0097874403 0.4327557682991 0.43291676044464
1.0297863483429 0.50371396541595 0.50390684604645
1.0420644283295 0.57572638988495 0.57594019174576
1.0485473871231 0.64719039201736 0.64741265773773
1.0490822792053 0.71579736471176 0.71601504087448
1.0381410121918 0.779168009758 0.77936851978302
1.0285768508911 0.83456373214722 0.83473861217499
1.0205836296082 0.8808611035347 0.88100534677505
-0.0001107795687858 0.00071756198303774 -0.0001107795687858
-0.00011078044190072 0.00071756768738851 -0.00011078044190072
-0.00011197384446859 0.00072529772296548 -0.00011197384446859
-0.0001171468757093 0.0007588054286316 -0.0001171468757093
0.00080028094816953 0.00079989695223048 -0.00016792345559224
0.0040950207039714 0.00081818265607581 -0.00032935675699264
0.009320417419076 0.00087644380982965 -0.00059012183919549
0.017204174771905 0.0010077361948788 -0.00099056912586093
0.028905712068081 0.0012474558316171 -0.0013497225008905
0.046057872474194 0.0016301460564137 -0.00091197527945042
0.070769086480141 0.002224076539278 -0.00017853081226349
0.1053376942873 0.0031333081424236 0.00088599510490894
0.151571854949 0.0045548509806395 0.0024556033313274
0.20987959206104 0.0068555995821953 0.0048887729644775
0.27867889404297 0.010644622147083 0.0087950080633163
0.35476300120354 0.016812808811665 0.015070743858814
0.43466773629189 0.026539035141468 0.024905204772949
0.51573657989502 0.041258916258812 0.039746530354023
0.59676760435104 0.062570482492447 0.061205096542835
0.67676270008087 0.092016465961933 0.090835243463516
0.75378406047821 0.13068754971027 0.12972478568554
0.82507878541946 0.17867681384087 0.17795221507549
0.88778102397919 0.23489744961262 0.23440502583981
0.93974709510803 0.29732751846313 0.29703605175018
0.9802228808403 0.36386257410049 0.36373034119606
1.009761929512 0.43292304873466 0.43290802836418
1.0297683477402 0.50383132696152 0.50390100479126
1.0420516729355 0.57580786943436 0.57593584060669
1.0485388040543 0.6472452878952 0.6474095582962
1.049076795578 0.71583294868469 0.71601313352585
1.0381375551224 0.77919042110443 0.77936708927155
1.0285747051239 0.8345775604248 0.83473765850067
1.0205826759338 0.8808678984642 0.88100498914719
-0.00059324852190912 0.0038426995743066 -0.00059324852190912
-0.00059324945323169 0.0038427044637501 -0.00059324945323169
-0.0005943535361439 0.0038498567882925 -0.0005943535361439
-0.00059913960285485 0.0038808579556644 -0.00059913960285485
0.00063913431949914 0.0039023659192026 -0.000662179896608
0.0039094346575439 0.003908634185791 -0.00082049332559109
0.0091070812195539 0.0039433008059859 -0.0010761055164039
0.01697363704443 0.0040326612070203 -0.0014689406380057
0.028663562610745 0.0042019840329885 -0.0015043644234538
0.045815199613571 0.0044927773997188 -0.0010382067412138
0.070529423654079 0.004973042756319 -0.00030462816357613
0.10509992390871 0.0057559981942177 0.00075835175812244
0.1513314396143 0.0070487260818481 0.002328734844923
0.20963177084923 0.0092261135578156 0.0047650448977947
0.27842119336128 0.012900814414024 0.008675754070282
0.35449680685997 0.018961980938911 0.014956831932068
0.43439808487892 0.028580836951733 0.024796970188618
0.51547074317932 0.043180540204048 0.039645031094551
0.59651398658752 0.064346134662628 0.061111487448215
0.67653036117554 0.093606881797314 0.090751513838768
0.75358164310455 0.13205420970917 0.12965276837349
0.82491165399551 0.17979224026203 0.17789362370968
0.88765060901642 0.23576231300831 0.23435938358307
0.93964976072311 0.29796928167343 0.29700228571892
0.98015236854553 0.36432331800461 0.36370605230331
1.0097119808197 0.43324887752533 0.43289068341255
1.0297335386276 0.50406062602997 0.5038885474205
1.0420273542404 0.57596635818481 0.57592761516571
1.0485224723816 0.64735215902328 0.64740395545959
1.0490659475327 0.7159024477005 0.71600919961929
1.0381308794022 0.77923315763474 0.77936458587646
1.0285707712173 0.83460253477097 0.83473658561707
1.0205801725388 0.88088327646255 0.88100379705429
-0.0013564862310886 0.0087864827364683 -0.0013564862310886
-0.0013564871624112 0.0087864883244038 -0.0013564871624112
-0.0013574659824371 0.0087928306311369 -0.0013574659824371
-0.0012646312825382 0.0088163055479527 -0.001365730073303
0.00044312560930848 0.0088102864101529 -0.0014468976296484
0.0036653678398579 0.0088029466569424 -0.0016006976366043
0.0088142603635788 0.0088128363713622 -0.0018499558791518
0.016642741858959 0.0088569233193994 -0.0019391691312194
0.028308067470789 0.0089593920856714 -0.0016791671514511
0.045447990298271 0.0091614816337824 -0.0012049432843924
0.070153936743736 0.0095274075865746 -0.00048490613698959
0.10471463948488 0.010172262787819 0.00056426413357258
0.15093019604683 0.011310108006001 0.0021264925599098
0.2092087417841 0.01332475617528 0.0045610144734383
0.27797499299049 0.016833934932947 0.0084743872284889
0.3540318608284 0.02272729575634 0.01476176828146
0.43392464518547 0.032168723642826 0.024610355496407
0.51500302553177 0.04656320810318 0.03946890681982
0.59606790542603 0.067471019923687 0.06094940751791
0.67612165212631 0.096408598124981 0.090606182813644
0.75322449207306 0.13446380198002 0.12952755391598
0.82461655139923 0.18175995349884 0.17779129743576
0.88742029666901 0.23728942871094 0.23427963256836
0.93947756290436 0.29910334944725 0.29694280028343
0.98002749681473 0.36513882875443 0.36366319656372
1.009623169899 0.43382641673088 0.43286025524139
1.0296701192856 0.50446730852127 0.50386714935303
1.0419833660126 0.57624852657318 0.57591271400452
1.0484929084778 0.64754229784012 0.64739418029785
1.0490466356277 0.71602594852448 0.71600311994553
1.0381190776825 0.77930927276611 0.77936029434204
1.0285637378693 0.83464819192886 0.83473426103592
1.0205762386322 0.88090837001801 0.88100290298462
-0.002379022538662 0.016230056062341 -0.0023790216073394
-0.0023789284750819 0.01623005233705 -0.0023790216073394
-0.002226329408586 0.016229368746281 -0.0023787086829543
-0.0015034358948469 0.016223762184381 -0.0023793177679181
0.00022183544933796 0.016209879890084 -0.0023784879595041
0.0033611431717873 0.016192108392715 -0.0023600347340107
0.008427957072854 0.016181062906981 -0.0022946558892727
0.016194395720959 0.016192043200135 -0.0021437453106046
0.027817364782095 0.016246749088168 -0.0018644575029612
0.044926568865776 0.016377858817577 -0.0014103893190622
0.069604441523552 0.016645099967718 -0.00072417594492435
0.10413305461407 0.017160562798381 0.0002920851111412
0.15030601620674 0.018139254301786 0.0018297433853149
0.20853495597839 0.019966769963503 0.0042503476142883
0.2772513628006 0.023266561329365 0.0081600993871689
0.35327032208443 0.028924308717251 0.014451816678047
0.43314504623413 0.038093857467175 0.024310894310474
0.5142303109169 0.052159450948238 0.039184853434563
0.59532988071442 0.072648033499718 0.060686990618706
0.67544519901276 0.10104963183403 0.090370774269104
0.75263333320618 0.13845530152321 0.12932501733303
0.82412719726563 0.18502677977085 0.17762467265129
0.88703620433807 0.23982894420624 0.2341492921114
0.93918907642365 0.30099302530289 0.29684555530548
0.97981941699982 0.36650010943413 0.36359238624573
1.0094745159149 0.43479192256927 0.43280977010727
1.0295653343201 0.50514739751816 0.5038315653801
1.0419104099274 0.57672041654587 0.57588785886765
1.048443198204 0.6478608250618 0.64737737178802
1.0490144491196 0.71623259782791 0.71599197387695
1.0380990505219 0.77943742275238 0.77935409545898
1.0285518169403 0.83472430706024 0.83473044633865
1.020569562912 0.88095152378082 0.88100063800812
-0.0026013217866421 0.027211006730795 -0.0026013199239969
-0.0026012156158686 0.027211032807827 -0.0026013255119324
-0.0024321489036083 0.02720919623971 -0.0026003830134869
-0.0017083249986172 0.027201611548662 -0.0025960095226765
-5.437433719635e-05 0.027186218649149 -0.002583147957921
0.0029715336859226 0.027164574712515 -0.0025500655174255
0.007926874794066 0.027143187820911 -0.0024761129170656
0.015603333711624 0.027133608236909 -0.0023316703736782
0.027156870812178 0.02715309523046 -0.0020786821842194
0.044208284467459 0.027229122817516 -0.0016685891896486
0.068828985095024 0.027415221557021 -0.0010365918278694
0.10329061001539 0.027816776186228 -7.4777752161026e-05
0.14937967061996 0.028641438111663 0.0014173239469528
0.20751199126244 0.030269715934992 0.0038062520325184
0.27613496780396 0.033318541944027 0.007700227200985
0.35208180546761 0.038665175437927 0.013990364968777
0.43192023038864 0.047443427145481 0.023860082030296
0.51301229000092 0.061007052659988 0.038755096495152
0.59416353702545 0.080842904746532 0.060288399457932
0.67437446117401 0.108402736485 0.090012446045876
0.75169664621353 0.14478668570518 0.1290155351162
0.8233494758606 0.19022041559219 0.17736823856831
0.88642436265945 0.24387817084789 0.23394709825516
0.93872976303101 0.30401518940926 0.29669231176376
0.97948545217514 0.36868369579315 0.36348038911819
1.0092352628708 0.43634402751923 0.43272966146469
1.0293964147568 0.506243288517 0.50377452373505
1.04179251194 0.57748156785965 0.57584798336029
1.0483641624451 0.64837485551834 0.6473503112793
1.04896235466 0.7165664434433 0.71597468852997
1.0380666255951 0.77964496612549 0.77934283018112
1.0285328626633 0.83484607934952 0.83472365140915
1.0205588340759 0.88102066516876 0.88099730014801
-0.0028041340410709 0.043314054608345 -0.0028041303157806
-0.0028040334582329 0.043314050883055 -0.0028041265904903
-0.0026460625231266 0.043312329798937 -0.0028032585978508
-0.0019704643636942 0.043305274099112 -0.0027990881353617
-0.00041619502007961 0.043290454894304 -0.0027874782681465
0.0024722050875425 0.04326756298542 -0.0027593038976192
0.0072846654802561 0.043239872902632 -0.0026980750262737
0.014834744855762 0.043214980512857 -0.0025787316262722
0.026282807812095 0.043205887079239 -0.0023662410676479
0.043241418898106 0.043235491961241 -0.0020125731825829
0.067764915525913 0.043349150568247 -0.0014487467706203
0.10210893303156 0.043642770498991 -0.00055818259716034
0.14805322885513 0.044312231242657 0.00086845457553864
0.20601919293404 0.045723542571068 0.0032065212726593
0.27448058128357 0.048472605645657 0.0070686712861061
0.35030162334442 0.053412664681673 0.013347893953323
0.43007186055183 0.061643816530704 0.023226357996464
0.5111665725708 0.074469223618507 0.038147702813148
0.59239184856415 0.093327917158604 0.059722602367401
0.67274403572083 0.11962420493364 0.089501321315765
0.75026601552963 0.15446776151657 0.12857124209404
0.82215738296509 0.19818986952305 0.17699560523033
0.88548201322556 0.25011852383614 0.23364917933941
0.93801772594452 0.3086950480938 0.29646375775337
0.9789656996727 0.37207990884781 0.36331114172935
1.008863568306 0.4387686252594 0.4326063990593
1.0291314125061 0.50795930624008 0.50368642807007
1.0416078567505 0.57867515087128 0.57578611373901
1.0482387542725 0.64918220043182 0.6473081111908
1.0488803386688 0.71709179878235 0.71594655513763
1.0380158424377 0.77997076511383 0.77932590246201
1.028502702713 0.8350390791893 0.83471405506134
1.0205415487289 0.88113087415695 0.88099151849747
-0.0031192600727081 0.06649424135685 -0.0031192526221275
-0.0031191594898701 0.066494233906269 -0.0031192488968372
-0.002973809838295 0.066492654383183 -0.0031184479594231
-0.0023491568863392 0.066486120223999 -0.0031148120760918
-0.0008971244096756 0.066471867263317 -0.0031050592660904
0.0018435940146446 0.066447839140892 -0.0030823796987534
0.0064881704747677 0.066414296627045 -0.0030341148376465
0.013875156641006 0.06637466698885 -0.002939235419035
0.025175558403134 0.066337041556835 -0.002766378223896
0.041993275284767 0.066318079829216 -0.0024689584970474
0.06636368483305 0.066354885697365 -0.0019759833812714
0.10052011162043 0.066531039774418 -0.0011647492647171
0.14623123407364 0.06702546030283 0.00018412619829178
0.20392949879169 0.068178661167622 0.002456359565258
0.27212911844254 0.070551507174969 0.0062719732522964
0.3477423787117 0.074953943490982 0.012530140578747
0.42739552259445 0.082423910498619 0.022414609789848
0.50847923755646 0.0942073315382 0.037364915013313
0.58980417251587 0.11165039241314 0.0589889138937
0.67035305500031 0.13613188266754 0.088833659887314
0.74815797805786 0.16876459121704 0.12798245251179
0.82039004564285 0.21001912653446 0.17649160325527
0.8840748667717 0.25944399833679 0.23323553800583
0.93694698810577 0.31573924422264 0.2961385846138
0.97817844152451 0.37722754478455 0.36306443810463
1.0082948207855 0.44246500730515 0.43242383003235
1.0287263393402 0.51058650016785 0.5035537481308
1.0413241386414 0.5805082321167 0.57569241523743
1.0480462312698 0.6504243016243 0.6472442150116
1.0487542152405 0.71790045499802 0.71590477228165
1.0379374027252 0.78047341108322 0.77929985523224
1.0284562110901 0.83533680438995 0.83469778299332
1.0205154418945 0.88129878044128 0.88098251819611
-0.0035198777914047 0.098843567073345 -0.0035198628902435
-0.0035197734832764 0.098843559622765 -0.0035198628902435
-0.0033851861953735 0.098841987550259 -0.0035191103816032
-0.0028050914406776 0.09883538633585 -0.003515712916851
-0.0014462172985077 0.098820373415947 -0.0035071074962616
0.0011500716209412 0.098793528974056 -0.0034880787134171
0.0056123808026314 0.098751842975616 -0.003448873758316
0.012803051620722 0.098694026470184 -0.0033723786473274
0.023906692862511 0.098622031509876 -0.0032310113310814
0.040522024035454 0.098544642329216 -0.0029810667037964
0.064662963151932 0.098487712442875 -0.0025506690144539
0.098531752824783 0.098519138991833 -0.001814067363739
0.14388158917427 0.098794102668762 -0.00054291635751724
0.20116519927979 0.099617712199688 0.0016583353281021
0.26895615458488 0.10150198638439 0.0054196119308472
0.34423977136612 0.10518826544285 0.011647671461105
0.4236952662468 0.11163456737995 0.021529868245125
0.50473892688751 0.12198717147112 0.036504775285721
0.58617889881134 0.13751092553139 0.058172002434731
0.66698503494263 0.15950374305248 0.088075712323189
0.74516755342484 0.18911622464657 0.12729468941689
0.81786036491394 0.22698886692524 0.17587803304195
0.88203805685043 0.27295938134193 0.23270758986473
0.93537825345993 0.32605791091919 0.29570433497429
0.97701352834702 0.38484555482864 0.36272263526917
1.0074465274811 0.44798398017883 0.43216270208359
1.0281171798706 0.51453322172165 0.50336122512817
1.0408964157104 0.58327287435532 0.57555437088013
1.0477553606033 0.65230292081833 0.64714908599854
1.0485628843307 0.71912664175034 0.7158420085907
1.0378184318542 0.78123611211777 0.77926045656204
1.0283856391907 0.83578938245773 0.83467471599579
1.0204751491547 0.88155663013458 0.88096910715103
-0.0037244483828545 0.1419295668602 -0.0037244483828545
-0.0037243738770485 0.1419295668602 -0.0037244483828545
-0.0035985484719276 0.14192780852318 -0.0037237033247948
-0.0030550360679626 0.14192035794258 -0.0037204027175903
-0.0017770379781723 0.14190298318863 -0.0037121325731277
0.00068528205156326 0.14187055826187 -0.0036948844790459
0.004963107407093 0.14181661605835 -0.0036606192588806
0.011930376291275 0.14173495769501 -0.0035952180624008
0.02278396487236 0.14161965250969 -0.0034752637147903
0.03911878913641 0.14146921038628 -0.0032591298222542
0.062922343611717 0.14129564166069 -0.0028762370347977
0.096359074115753 0.14114627242088 -0.0021984726190567
0.14116249978542 0.14114572107792 -0.00099396705627441
0.19781744480133 0.14155368506908 0.0011403858661652
0.26498252153397 0.14281775057316 0.0048452615737915
0.33975028991699 0.14559538662434 0.011031433939934
0.41887444257736 0.15074333548546 0.020890563726425
0.49980872869492 0.15927362442017 0.035863503813744
0.58135575056076 0.17233970761299 0.057536363601685
0.66245985031128 0.19116565585136 0.087443917989731
0.74110126495361 0.21693679690361 0.12666304409504
0.8143755197525 0.2504446208477 0.17525863647461
0.879190325737 0.291897803545 0.23211933672428
0.93315100669861 0.34073168039322 0.29517793655396
0.97533273696899 0.39583873748779 0.36227858066559
1.0062080621719 0.45604756474495 0.43180745840073
1.0272200107574 0.52035057544708 0.50309014320374
1.04026222229 0.58737337589264 0.57535654306412
1.0473214387894 0.65510129928589 0.64701062440872
1.0482771396637 0.72095835208893 0.71575045585632
1.0376400947571 0.78237903118134 0.77920210361481
1.0282797813416 0.83646827936172 0.83464020490646
1.0204149484634 0.88194262981415 0.88094907999039
-0.0030120015144348 0.1959682404995 -0.0030119866132736
-0.0030119270086288 0.1959682404995 -0.0030119866132736
-0.002893403172493 0.19596606492996 -0.0030112117528915
-0.0023811906576157 0.19595701992512 -0.0030078291893005
-0.0011726021766663 0.19593587517738 -0.0029995888471603
0.0011679381132126 0.19589528441429 -0.0029827505350113
0.0052628666162491 0.19582588970661 -0.0029506236314774
0.011983260512352 0.19571533799171 -0.0028909742832184
0.022529885172844 0.19554977118969 -0.0027824491262436
0.038481697440147 0.19531640410423 -0.0025866627693176
0.061795294284821 0.19501048326492 -0.002233698964119
0.094592906534672 0.19465561211109 -0.0015972703695297
0.13858138024807 0.19434177875519 -0.00044205784797668
0.19429618120193 0.19427534937859 0.0016340911388397
0.26051193475723 0.19482712447643 0.0052756667137146
0.33447834849358 0.19655361771584 0.011396586894989
0.41305160522461 0.20018857717514 0.021186470985413
0.49373257160187 0.2066133916378 0.036078244447708
0.57531452178955 0.21683615446091 0.057647511363029
0.65670377016068 0.23197418451309 0.087414965033531
0.73584508895874 0.25320529937744 0.12646754086018
0.80978310108185 0.28151911497116 0.17489585280418
0.8753559589386 0.31746461987495 0.23163017630577
0.93008935451508 0.36093693971634 0.29463964700699
0.97297489643097 0.41128048300743 0.36175924539566
1.0044394731522 0.4675629734993 0.43135529756546
1.0259230136871 0.52876174449921 0.50272715091705
1.0393372774124 0.59335267543793 0.57508331537247
1.0466847419739 0.65920716524124 0.6468158364296
1.0478558540344 0.72365814447403 0.71561855077744
1.0373764038086 0.78406935930252 0.77911794185638
1.0281226634979 0.83747524023056 0.83458870649338
1.0203251838684 0.88251811265945 0.88091915845871
-8.6486339569092e-05 0.25936424732208 -8.6471438407898e-05
