Profiles/LUTs/AgX.cube
LUT_3D_SIZE 5
0 0 0
0.044071417301893 0.00012296218483243 0.00012870102364104
0.43690520524979 0.068002842366695 0.068060576915741
0.90595954656601 0.45015227794647 0.45034772157669
1 0.90333473682404 0.90343862771988
0.0038911604788154 0.045529674738646 0.0038911604788154
0.047229085117579 0.047224503010511 0.007448204793036
0.4373682141304 0.096440002322197 0.070771306753159
0.90597081184387 0.45491117238998 0.45077729225159
1 0.90346711874008 0.90345042943954
0.10781253129244 0.4442024230957 0.10781253129244
0.1308915913105 0.44444254040718 0.10902945697308
0.45244285464287 0.45242083072662 0.14705395698547
0.90635353326797 0.56836986541748 0.46479767560959
1 0.90779209136963 0.90385037660599
0.55798763036728 0.90972506999969 0.55798763036728
0.56046533584595 0.90973073244095 0.55811303853989
0.62855625152588 0.90992403030396 0.56232649087906
0.9138560295105 0.91384524106979 0.63310444355011
1 0.95714682340622 0.91167813539505
0.95051556825638 1 0.95051556825638
0.95056104660034 1 0.95051783323288
0.95207232236862 1 0.95059549808502
0.97378689050674 1 0.95219415426254
1 1 0.9733521938324
0.0039638504385948 0.003958563786 0.045556865632534
0.047260466963053 0.0075011653825641 0.047253161668777
0.43737286329269 0.07073949277401 0.096510663628578
0.90597093105316 0.45058637857437 0.45510524511337
1 0.90334671735764 0.90357083082199
0.010149932466447 0.04868084564805 0.048678573220968
0.05034264549613 0.05033590644598 0.050335492938757
0.43783465027809 0.098823994398117 0.098871976137161
0.90598225593567 0.45533373951912 0.45552334189415
1 0.90347903966904 0.90358257293701
0.11008266359568 0.44465133547783 0.13184686005116
0.1329515427351 0.44489082694054 0.13294671475887
0.45287162065506 0.45284947752953 0.16758319735527
0.90636485815048 0.56859058141708 0.46918505430222
1 0.90780317783356 0.90398162603378
0.55822205543518 0.90973573923111 0.56057232618332
0.56069642305374 0.90974134206772 0.56069594621658
0.62871086597443 0.90993463993073 0.5648484826088
0.91386598348618 0.91385507583618 0.63476622104645
1 0.95715039968491 0.91179209947586
0.9505198597908 1 0.95056301355362
0.95056533813477 1 0.95056533813477
0.95207643508911 1 0.95064288377762
0.97378885746002 1 0.95223933458328
1 1 0.97337472438812
0.10860744863749 0.10854960978031 0.4443364739418
0.13161252439022 0.10976146906614 0.44457668066025
0.4525927901268 0.14763820171356 0.45255780220032
0.90635752677917 0.46474725008011 0.56853497028351
1 0.90375113487244 0.90789139270782
0.11084746569395 0.13249532878399 0.44478085637093
0.13364538550377 0.13359041512012 0.44502049684525
0.45301693677902 0.16810387372971 0.4529821574688
0.90636867284775 0.46913236379623 0.5687535405159
1 0.90388250350952 0.90790224075317
0.17659413814545 0.45927587151527 0.45926529169083
0.19406671822071 0.45949658751488 0.45948621630669
0.46686699986458 0.46683672070503 0.46683493256569
0.90674871206284 0.57593512535095 0.57602483034134
1 0.90817695856094 0.90827190876007
0.56601387262344 0.91009658575058 0.63104385137558
0.56838101148605 0.91010218858719 0.63112545013428
0.63388514518738 0.91029423475266 0.6338729262352
0.9142005443573 0.91418951749802 0.682885825634
1 0.95726990699768 0.91553008556366
0.95066493749619 1 0.95213854312897
0.95071017742157 1 0.95214080810547
0.95221531391144 1 0.95221495628357
0.97385662794113 1 0.95374315977097
1 1 0.97412812709808
0.55973762273788 0.55961066484451 0.90979325771332
0.56219094991684 0.55973476171494 0.90979892015457
0.62971216440201 0.56390535831451 0.90999209880829
0.91392999887466 0.63407987356186 0.91391277313232
1 0.91166007518768 0.95719999074936
0.55996763706207 0.56216990947723 0.90980380773544
0.56241774559021 0.56229221820831 0.9098094701767
0.62986415624619 0.56640285253525 0.91000258922577
0.91393977403641 0.63573044538498 0.91392254829407
1 0.91177403926849 0.9572035074234
0.56760835647583 0.63205456733704 0.91016083955765
0.56995397806168 0.63213551044464 0.91016656160355
0.63495218753815 0.6348631978035 0.91035854816437
0.91427057981491 0.68356376886368 0.91425347328186
1 0.91551041603088 0.95732182264328
0.67856979370117 0.91718733310699 0.91718220710754
0.67976367473602 0.91719228029251 0.91718709468842
0.71551823616028 0.91736024618149 0.91735535860062
0.92079043388367 0.92077624797821 0.92077535390854
1 0.9596933722496 0.95971989631653
0.95359134674072 1 0.97447127103806
0.95363295078278 1 0.97447234392166
0.9550194144249 1 0.97450762987137
0.97524338960648 1 0.97524011135101
1 1 0.98614418506622
0.95113015174866 0.9510857462883 1
0.95117485523224 0.9510880112648 1
0.95266073942184 0.95116436481476 1
0.9740743637085 0.95273619890213 1
1 0.97360599040985 1
0.95113432407379 0.95113235712051 1
0.95117896795273 0.95113456249237 1
0.95266473293304 0.95121079683304 1
0.97407633066177 0.95278066396713 1
1 0.97362822294235 1
0.95127546787262 0.95268219709396 1
0.95131999254227 0.95268428325653 1
0.95279985666275 0.95275729894638 1
0.97414261102676 0.95426070690155 1
1 0.9743737578392 1
0.95412582159042 0.97471863031387 1
0.95416688919067 0.97471964359283 1
0.95553225278854 0.97475457191467 1
0.97550112009048 0.97547936439514 1
1 0.98628258705139 1
0.98422050476074 1 1
0.98423409461975 1 1
0.98469036817551 1 1
0.99246340990067 1 1
1 1 1
