Profiles/LUTs/AgX.cube
LUT_3D_SIZE 33
0 0 0
0 0 0
0 0 0
0 0 0
0.0018604907672852 0 0
0.0082983914762735 0 0
0.016854764893651 0 0
0.028393216431141 0 0
0.044071417301893 0.00012296218483243 0.00012870102364104
0.065364338457584 0.0031582047231495 0.0031658599618822
0.093970060348511 0.0069551793858409 0.0069653317332268
0.13149110972881 0.011765281669796 0.011778746731579
0.17880682647228 0.017927929759026 0.017945887520909
0.23543086647987 0.025905026122928 0.025929063558578
0.29929900169373 0.036322355270386 0.036354560405016
0.36739042401314 0.050003059208393 0.050046339631081
0.43690520524979 0.068002842366695 0.068060576915741
0.506068110466 0.091566488146782 0.091642841696739
0.5743835568428 0.12200205773115 0.1221007630229
0.64149636030197 0.1603627204895 0.16048634052277
0.70627784729004 0.20702742040157 0.20717598497868
0.76685476303101 0.26128992438316 0.26145973801613
0.8211972117424 0.32140186429024 0.32158645987511
0.86774927377701 0.38504481315613 0.38523757457733
0.90595954656601 0.45015227794647 0.45034772157669
0.93623834848404 0.51541787385941 0.51561367511749
0.95966285467148 0.58044600486755 0.58064126968384
0.97753518819809 0.64478141069412 0.64497357606888
0.99110281467438 0.70726823806763 0.70745289325714
1 0.76609510183334 0.76626580953598
1 0.81928342580795 0.81943452358246
1 0.86525541543961 0.86538314819336
1 0.90333473682404 0.90343862771988
0 0 0
0 0 0
0 0 0
0 0 0
0.0018605114892125 0 0
0.0082984054461122 0 0
0.016854776069522 0 0
0.028393216431141 0 0
0.044071417301893 0.00012326236173976 0.00012872209481429
0.065364338457584 0.0031584473326802 0.0031658832449466
0.093970082700253 0.006955377291888 0.0069653503596783
0.13149110972881 0.011765445582569 0.011778763495386
0.17880687117577 0.017928073182702 0.01794589869678
0.23543086647987 0.025905158370733 0.025929063558578
0.29929900169373 0.036322470754385 0.036354579031467
0.36739042401314 0.050003167241812 0.050046354532242
0.43690520524979 0.068002909421921 0.068060614168644
0.506068110466 0.09156658500433 0.091642841696739
0.5743835568428 0.1220021173358 0.1221007630229
0.64149636030197 0.16036276519299 0.16048641502857
0.70627784729004 0.20702746510506 0.20717598497868
0.76685476303101 0.26128998398781 0.26145973801613
0.8211972117424 0.32140186429024 0.32158645987511
0.86774927377701 0.38504481315613 0.38523757457733
0.90595954656601 0.45015227794647 0.45034772157669
0.93623834848404 0.51541787385941 0.51561367511749
0.95966285467148 0.58044600486755 0.58064126968384
0.97753518819809 0.64478141069412 0.64497357606888
0.99110281467438 0.70726823806763 0.70745289325714
1 0.76609510183334 0.76626580953598
1 0.81928342580795 0.81943452358246
1 0.86525541543961 0.86538314819336
1 0.90333473682404 0.90343862771988
0 0 0
0 0 0
0 0 0
0 0 0
0.0018967314390466 0 0
0.0083241146057844 0 0
0.016874812543392 0 0
0.028409728780389 0 0
0.044085465371609 0.00058188696857542 0.00017041267710738
0.065376542508602 0.0035266301129013 0.0031991368159652
0.093980640172958 0.0072583081200719 0.0069925640709698
0.13150008022785 0.012020509690046 0.011801586486399
0.1788142323494 0.018146846443415 0.017965456470847
0.23543654382229 0.026095934212208 0.025946110486984
0.29930338263512 0.036491099745035 0.036369629204273
0.36739346385002 0.050153631716967 0.050059787929058
0.43690711259842 0.068137392401695 0.068072594702244
0.50606942176819 0.091686092317104 0.091653510928154
0.57438451051712 0.1221067160368 0.12211008369923
0.64149689674377 0.16045175492764 0.16049432754517
0.70627820491791 0.20710034668446 0.20718258619308
0.76685494184494 0.26134696602821 0.26146483421326
0.82119727134705 0.32144430279732 0.32159027457237
0.8677493929863 0.38507524132729 0.38524028658867
0.90595960617065 0.45017349720001 0.45034962892532
0.93623840808868 0.51543253660202 0.51561498641968
0.95966285467148 0.58045613765717 0.58064222335815
0.97753524780273 0.64478820562363 0.64497429132462
0.99110281467438 0.70727276802063 0.70745325088501
1 0.76609814167023 0.7662661075592
1 0.8192852139473 0.81943470239639
1 0.86525636911392 0.86538332700729
1 0.90333539247513 0.90343862771988
0 0 0
0 0 0
0 0 0
0 0 0
0.0020525711588562 0 0
0.0084353545680642 0 0
0.016961449757218 0 0
0.02848114259541 0.00043619383359328 0
0.044146325439215 0.0023930054157972 0.00034921703627333
0.065429292619228 0.0050354553386569 0.0033420480322093
0.094026334583759 0.0085284486413002 0.0071099055930972
0.13153898715973 0.013103634119034 0.011900374665856
0.17884604632854 0.019083244726062 0.018050124868751
0.235461384058 0.026916725561023 0.026019873097539
0.29932162165642 0.037218265235424 0.036434885114431
0.36740639805794 0.050803050398827 0.050117969512939
0.43691602349281 0.068718545138836 0.068124614655972
0.50607544183731 0.092203043401241 0.091699704527855
0.57438856363297 0.12255915254354 0.12215045839548
0.64149963855743 0.16083703935146 0.16052879393101
0.70627999305725 0.20741578936577 0.20721070468426
0.76685607433319 0.26159334182739 0.26148682832718
0.82119792699814 0.32162788510323 0.32160672545433
0.86774986982346 0.38520690798759 0.38525202870369
0.90595984458923 0.450265198946 0.4503578543663
0.93623852729797 0.51549583673477 0.51562070846558
0.95966291427612 0.58049964904785 0.58064603805542
0.97753524780273 0.64481782913208 0.64497685432434
0.99110281467438 0.70729243755341 0.70745503902435
1 0.76611059904099 0.76626718044281
1 0.81929290294647 0.81943535804749
1 0.86526089906693 0.86538368463516
1 0.90333795547485 0.90343886613846
0 0.0021178044844419 0
0 0.0021178172901273 0
0 0.0021370351314545 0
0 0.0022199659142643 0
0.0024155015125871 0.0024146933574229 0
0.0086970599368215 0.0027876319363713 0
0.01716616936028 0.0034280652180314 0
0.028650008141994 0.0044497502967715 0
0.044290475547314 0.0059912721626461 0.00076219992479309
0.065554268658161 0.0082154916599393 0.0036759919021279
0.094134673476219 0.01131883636117 0.0073859337717295
0.13163107633591 0.015550445765257 0.012133256532252
0.17892153561115 0.021237505599856 0.018250107765198
0.23552018404007 0.028825812041759 0.026194544509053
0.29936507344246 0.038921937346458 0.036589305847883
0.36743691563606 0.052330639213324 0.050255656242371
0.43693682551384 0.070088587701321 0.068247810006142
0.50608950853348 0.093423344194889 0.091809213161469
0.57439810037613 0.12362811714411 0.12224633991718
0.64150607585907 0.16174758970737 0.1606103181839
0.70628416538239 0.20816147327423 0.20727746188641
0.76685881614685 0.26217636466026 0.26153895258904
0.8211994767189 0.3220626115799 0.3216455578804
0.86775070428848 0.38551852107048 0.3852798640728
0.90596038103104 0.45048254728317 0.45037725567818
0.9362388253212 0.51564574241638 0.51563405990601
0.95966309309006 0.58060276508331 0.58065533638
0.97753536701202 0.64488786458969 0.6449830532074
0.99110281467438 0.70733880996704 0.7074590921402
1 0.76614022254944 0.76626980304718
1 0.81931108236313 0.81943696737289
1 0.86527156829834 0.86538463830948
1 0.90334385633469 0.90343946218491
0 0.0087162284180522 0
0 0.0087162423878908 0
0 0.0087299179285765 0
0 0.0087891379371285 0
0.0030994242988527 0.0089287580922246 0
0.0092007219791412 0.009199408814311 0
0.017563432455063 0.0096732471138239 0
0.028978800401092 0.010451098904014 0
0.044571228325367 0.011668753810227 0.0015303358668461
0.065798044204712 0.013502338901162 0.004309612326324
0.094346083700657 0.016173847019672 0.0079159401357174
0.13181091845036 0.019964229315519 0.012583470903337
0.17906875908375 0.025227980688214 0.018638389185071
0.23563502728939 0.032427445054054 0.026534320786595
0.29944983124733 0.042174112051725 0.03689007461071
0.36749678850174 0.055268172174692 0.050524171441793
0.43697774410248 0.072734765708447 0.068487942218781
0.50611716508865 0.095786578953266 0.092022866010666
0.57441663742065 0.12570136785507 0.12243325263262
0.64151847362518 0.16351547837257 0.16076944768429
0.70629233121872 0.2096109688282 0.20740762352943
0.76686388254166 0.26331016421318 0.26164081692696
0.82120257616043 0.3229087293148 0.3217214345932
0.86775243282318 0.38612559437752 0.38533422350883
0.90596139431 0.45090627670288 0.45041513442993
0.936239361763 0.51593798398972 0.51566016674042
0.95966339111328 0.5808037519455 0.58067315816879
0.97753548622131 0.64502441883087 0.64499533176422
0.99110293388367 0.7074294090271 0.70746713876724
1 0.7661982178688 0.76627498865128
1 0.81934642791748 0.81944012641907
1 0.86529219150543 0.86538642644882
1 0.90335553884506 0.90344047546387
0 0.017504937946796 0
0 0.017504947260022 0
0 0.017515601590276 0
0.00035952290636487 0.017561759799719 0
0.0042456132359803 0.017670951783657 0
0.010072533972561 0.017883414402604 0
0.018260246142745 0.018258195370436 0
0.029559094458818 0.01888076402247 0.00089785153977573
0.045068182051182 0.019871741533279 0.0027945947367698
0.066230051219463 0.021397959440947 0.0053826607763767
0.094720706343651 0.023683492094278 0.008829883299768
0.13212974369526 0.027022106572986 0.013368464075029
0.17933011054993 0.031793769448996 0.019320258870721
0.23583875596523 0.038487248122692 0.027133781462908
0.299600481987 0.047735817730427 0.037421852350235
0.36760279536247 0.060347381979227 0.050999563187361
0.43705028295517 0.077342510223389 0.068913578987122
0.50616616010666 0.099919945001602 0.092401534318924
0.5744497179985 0.12933751940727 0.12276482582092
0.64154064655304 0.16662150621414 0.16105169057846
0.70630675554276 0.21216234564781 0.20763871073723
0.76687300205231 0.26530793309212 0.26182132959366
0.8212081193924 0.32440203428268 0.32185596227646
0.86775571107864 0.38719815015793 0.38543066382408
0.9059631228447 0.45165592432022 0.45048242807388
0.93624031543732 0.51645570993423 0.51570641994476
0.95966386795044 0.58116012811661 0.58070516586304
0.97753572463989 0.64526671171188 0.64501690864563
0.99110305309296 0.70758998394012 0.70748156309128
1 0.76630085706711 0.76628422737122
1 0.81940931081772 0.81944572925568
1 0.86532908678055 0.86538976430893
1 0.9033762216568 0.90344232320786
0.00045856300857849 0.029377741739154 0.00045856300857849
0.00045884304563515 0.029377741739154 0.00045857753138989
0.00088675523875281 0.029386568814516 0.00048045115545392
0.0025911969132721 0.029424639418721 0.00057484279386699
0.0060196234844625 0.029514728114009 0.00079549622023478
0.011480243876576 0.029690450057387 0.0012152624549344
0.019407689571381 0.030001446604729 0.0019280472770333
0.030523607507348 0.03052051179111 0.0030486367177218
0.045897740870714 0.031353440135717 0.0047093075700104
0.066952601075172 0.032650321722031 0.007063802331686
0.095347881317139 0.034620732069016 0.010296730324626
0.13266402482986 0.037552569061518 0.014649347402155
0.17976771295071 0.041830204427242 0.020444586873055
0.23618008196354 0.047956079244614 0.028128024190664
0.2998526096344 0.056584406644106 0.038308255374432
0.3677806854248 0.068538814783096 0.051793731749058
0.43717169761658 0.084844253957272 0.069625549018383
0.50624817609787 0.10668960213661 0.093035355210304
0.57450520992279 0.13531813025475 0.12332003563643
0.6415776014328 0.1717434823513 0.16152445971966
0.70633107423782 0.21637643873692 0.20802585780621
0.76688826084137 0.2686183154583 0.26212394237518
0.82121735811234 0.32688245177269 0.32208153605461
0.86776101589203 0.38898411393166 0.38559240102768
0.90596610307693 0.45290651917458 0.4505952000618
0.93624186515808 0.51732093095779 0.51578414440155
0.95966470241547 0.58175647258759 0.5807586312294
0.97753620147705 0.64567250013351 0.64505332708359
0.99110329151154 0.70785927772522 0.70750570297241
1 0.76647305488586 0.76629960536957
1 0.81951475143433 0.8194552063942
1 0.86539083719254 0.86539530754089
1 0.9034109711647 0.90344542264938
0.0038911604788154 0.045529674738646 0.0038911604788154
0.0038913774769753 0.045529700815678 0.0038911656010896
0.0042295553721488 0.045537196099758 0.0039083235897124
0.0056266677565873 0.045569647103548 0.0039824559353292
0.0086103528738022 0.045646537095308 0.0041569932363927
0.013636751100421 0.045796602964401 0.004492973908782
0.021212056279182 0.046062469482422 0.0050745741464198
0.03206043317914 0.046507585793734 0.0060130632482469
0.047229085117579 0.047224503010511 0.007448204793036
0.068115219473839 0.048345874994993 0.0095513518899679
0.096358612179756 0.050063665956259 0.012528568506241
0.1335251480341 0.052646238356829 0.016638809815049
0.18047407269478 0.056460831314325 0.022216336801648
0.23673109710217 0.06200297921896 0.029709998518229
0.30025985836983 0.06992793828249 0.039726559072733
0.36806800961494 0.081063970923424 0.053069170564413
0.4373682141304 0.096440002322197 0.070771306753159
0.50638103485107 0.11723674833775 0.094056934118271
0.57459491491318 0.14468468725681 0.12421515583992
0.64163762331009 0.17980068922043 0.16228719055653
0.70637029409409 0.2230309098959 0.20865090191364
0.76691311597824 0.27386540174484 0.26261249184608
0.82123225927353 0.3308299779892 0.32244595885277
0.86776971817017 0.39183703064919 0.38585355877876
0.90597081184387 0.45491117238998 0.45077729225159
0.93624442815781 0.51871132850647 0.51590996980667
0.9596660733223 0.58271652460098 0.58084511756897
0.97753691673279 0.64632672071457 0.64511197805405
0.99110370874405 0.70829367637634 0.70754456520081
1 0.76675111055374 0.76632446050644
1 0.81968516111374 0.81947046518326
1 0.8654904961586 0.86540412902832
1 0.90346711874008 0.90345042943954
0.0082186423242092 0.067475147545338 0.0082186423242092
0.0082188155502081 0.067475147545338 0.0082186562940478
0.0084950057789683 0.067481644451618 0.008232600055635
0.0096583599224687 0.067509822547436 0.0082930233329535
0.012244297191501 0.06757652759552 0.0084355175495148
0.016806313768029 0.067706666886806 0.0087115140631795
0.023947138339281 0.067937463521957 0.0091944644227624
0.034430172294378 0.068324066698551 0.0099861128255725
0.049299947917461 0.068947710096836 0.01122313644737
0.069933377206326 0.069926716387272 0.013082167133689
0.097942933440208 0.07143135368824 0.015784086659551
0.13487556576729 0.073704905807972 0.019608531147242
0.18158341944218 0.077086672186852 0.024908034130931
0.23759710788727 0.082045592367649 0.032143756747246
0.30090025067329 0.08920793235302 0.041926715523005
0.36852034926414 0.099381878972054 0.055057819932699
0.43767738342285 0.11357662826777 0.072563521564007
0.5065900683403 0.13295842707157 0.095657870173454
0.5747361779213 0.15874537825584 0.12561984360218
0.64173233509064 0.19196806848049 0.16348499059677
0.70643216371536 0.23313775658607 0.20963282883167
0.76695215702057 0.28188067674637 0.26338046789169
0.82125586271286 0.33689695596695 0.32301911711693
0.86778318881989 0.39624720811844 0.38626483082771
0.90597838163376 0.4580263197422 0.45106443762779
0.9362485408783 0.52088183164597 0.51610791683197
0.95966827869415 0.58421951532364 0.58098125457764
0.97753804922104 0.64735251665115 0.64520454406738
0.99110424518585 0.70897579193115 0.70760583877563
1 0.76718825101852 0.76636362075806
1 0.81995296478271 0.81949442625046
1 0.86564737558365 0.86541819572449
1 0.90355551242828 0.9034583568573
0.013745665550232 0.096930898725986 0.013745665550232
0.013745828531682 0.096930898725986 0.013745674863458
0.013977146707475 0.096936501562595 0.013757338747382
0.014963552355766 0.096960812807083 0.013807788491249
0.017211813479662 0.097018577158451 0.013927199877799
0.021316822618246 0.097131155431271 0.014159351587296
0.027964893728495 0.097330905497074 0.014568018727005
0.037985127419233 0.097665622830391 0.015244442038238
0.052445627748966 0.098205968737602 0.016315696761012
0.07271184027195 0.099055260419846 0.017954152077436
0.10037253051996 0.10036328434944 0.020384822040796
0.13695068657398 0.10234516113997 0.023900970816612
0.18328972160816 0.10530485957861 0.028873343020678
0.2389305382967 0.10966637730598 0.035782396793365
0.30188742280006 0.11600582301617 0.045251104980707
0.36921805143356 0.12507712841034 0.058084595948458
0.43815502524376 0.13783638179302 0.075303442776203
0.50691306591034 0.15540777146816 0.098112434148788
0.57495468854904 0.1789808422327 0.12777706980705
0.64187860488892 0.20961183309555 0.16532662510872
0.70652794837952 0.24791343510151 0.2111445069313
0.76701259613037 0.29370176792145 0.26456353068352
0.82129240036011 0.3459261059761 0.32390275597572
0.86780428886414 0.40286886692047 0.38689929246902
0.90599012374878 0.46274071931839 0.4515075981617
0.93625485897064 0.52418786287308 0.51641398668289
0.95967161655426 0.5865193605423 0.58119177818298
0.97753977775574 0.64892739057541 0.64534771442413
0.99110519886017 0.71002519130707 0.70770078897476
1 0.76786136627197 0.76642429828644
1 0.82036602497101 0.81953150033951
1 0.86588972806931 0.86543989181519
1 0.90369194746017 0.90347051620483
0.020889490842819 0.13547304272652 0.020889490842819
0.020889626815915 0.13547304272652 0.020889503881335
0.021087905392051 0.1354778110981 0.020899483934045
0.021938655525446 0.13549843430519 0.020942753180861
0.023908065631986 0.13554725050926 0.021045075729489
0.027590425685048 0.13564266264439 0.021244425326586
0.033720478415489 0.13581191003323 0.021596521139145
0.043193239718676 0.13609564304352 0.022182650864124
0.057120468467474 0.13655389845371 0.023118676617742
0.076875507831573 0.13727474212646 0.024566324427724
0.10403128713369 0.13838590681553 0.026745973154902
0.14008471369743 0.14007225632668 0.029952755197883
0.185870423913 0.1425960958004 0.034569706767797
0.24095015227795 0.14632564783096 0.041093904525042
0.30338487029076 0.15176725387573 0.050164580345154
0.37027803063393 0.15959343314171 0.062597289681435
0.4388815164566 0.17067025601864 0.079413995146751
0.50740492343903 0.18604019284248 0.10180768370628
0.57528734207153 0.20684096217155 0.13103325664997
0.64210146665573 0.23414388298988 0.16811031103134
0.70667386054993 0.2686755657196 0.21343277394772
0.76710456609726 0.31051242351532 0.26635676622391
0.82134789228439 0.35893553495407 0.32524409890175
0.86783635616302 0.41253301501274 0.38786354660988
0.90600794553757 0.4697014093399 0.45218205451965
0.9362645149231 0.52911633253098 0.5168799161911
0.95967668294907 0.58997112512589 0.58151286840439
0.97754245996475 0.65130138397217 0.64556592702866
0.991106569767 0.71161180734634 0.70784562826157
1 0.76888161897659 0.76651692390442
1 0.82099318504333 0.81958812475204
1 0.86625784635544 0.86547309160233
1 0.90389978885651 0.90348923206329
0.030213987454772 0.18387454748154 0.030213987454772
0.03021408803761 0.18387454748154 0.030213987454772
0.030387137085199 0.18387839198112 0.03022270090878
0.031132189556956 0.18389528989792 0.030260415747762
0.032872468233109 0.18393515050411 0.030349798500538
0.036177534610033 0.18401294946671 0.030523858964443
0.041793253272772 0.18415097892284 0.030832013115287
0.050655927509069 0.18438260257244 0.031346600502729
0.063926294445992 0.18475662171841 0.032172281295061
0.083001479506493 0.18534496426582 0.033458702266216
0.1094466894865 0.18625263869762 0.035414412617683
0.14474019408226 0.18763136863708 0.038326978683472
0.18971312046051 0.18969742953777 0.042579967528582
0.24396407604218 0.19275653362274 0.04867685213685
0.30562469363213 0.19723230600357 0.057273212820292
0.37186688184738 0.20369547605515 0.069194070994854
0.43997287750244 0.21289779245853 0.085464924573898
0.50814515352249 0.22575265169144 0.10727500915527
0.57578843832016 0.24331994354725 0.13586643338203
0.64243763685226 0.26664397120476 0.17225189507008
0.70689392089844 0.29658403992653 0.21684071421623
0.76724350452423 0.33348014950752 0.2690355181694
0.82143181562424 0.37702041864395 0.32725214958191
0.86788487434387 0.42620545625687 0.38930985331535
0.90603488683701 0.47971233725548 0.45319503545761
0.93627905845642 0.53630191087723 0.51758110523224
0.95968437194824 0.59505254030228 0.58199614286423
0.9775465130806 0.65481930971146 0.64589488506317
0.99110871553421 0.71397387981415 0.70806378126144
1 0.77040547132492 0.76665657758713
1 0.82193219661713 0.8196736574173
1 0.86681038141251 0.86552309989929
1 0.90421187877655 0.90351736545563
0.042477194219828 0.24147780239582 0.042477194219828
0.042477283626795 0.24147780239582 0.042477194219828
0.042630214244127 0.2414808422327 0.042484898120165
0.043290045112371 0.24149388074875 0.042518194764853
0.044839538633823 0.24152475595474 0.042597148567438
0.047812227159739 0.24158504605293 0.042751133441925
0.052932742983103 0.24169208109379 0.043023940175772
0.061147373169661 0.24187140166759 0.043480310589075
0.073645889759064 0.24216122925282 0.044214814901352
0.091848999261856 0.24261753261089 0.045364115387201
0.11732563376427 0.24332168698311 0.047123186290264
0.15154504776001 0.24439203739166 0.049762435257435
0.19534923136234 0.2459981739521 0.053656205534935
0.24839921295643 0.24838061630726 0.05930195748806
0.3089320063591 0.25187614560127 0.067355938255787
0.37422105669975 0.25694432854652 0.078649766743183
0.44159442186356 0.26419737935066 0.094212830066681
0.50924742221832 0.27441093325615 0.11522652208805
0.57653617858887 0.28851184248924 0.14292424917221
0.64293968677521 0.30748954415321 0.17832025885582
0.70722264051437 0.33227270841599 0.22185006737709
0.76745122671127 0.36347109079361 0.27298364043236
0.82155734300613 0.40118512511253 0.33022093772888
0.86795729398727 0.44490525126457 0.39145439863205
0.90607511997223 0.4937047958374 0.45470136404037
0.93630081415176 0.54653280973434 0.51862561702728
0.95969587564468 0.60238564014435 0.58271712064743
0.97755259275436 0.65994322299957 0.64638602733612
0.99111193418503 0.71743714809418 0.7083899974823
1 0.77265065908432 0.76686525344849
1 0.82332110404968 0.8198014497757
1 0.8676301240921 0.86559784412384
1 0.904676258564 0.90355944633484
0.058666754513979 0.30606052279472 0.058666754513979
0.058666817843914 0.30606052279472 0.058666754513979
0.058802925050259 0.30606272816658 0.058673597872257
0.059391003102064 0.30607223510742 0.058703266084194
0.060776740312576 0.30609506368637 0.058773502707481
0.063449792563915 0.30613923072815 0.058910600841045
0.068096250295639 0.30621784925461 0.059153731912374
0.075636461377144 0.30634960532188 0.05956095457077
0.087254077196121 0.3065624833107 0.060217328369617
0.10437574237585 0.30689769983292 0.061247084289789
0.12857337296009 0.30741536617279 0.062828190624714
0.1613182425499 0.30820301175117 0.065214045345783
0.20348338782787 0.30938625335693 0.068756408989429
0.25483164191246 0.31114494800568 0.073934964835644
0.31375348567963 0.31373283267021 0.081389226019382
0.37766849994659 0.31750217080116 0.091942735016346
0.44397968053818 0.32292181253433 0.10661143064499
0.51087403297424 0.33061665296555 0.12657323479652
0.57764214277267 0.34135872125626 0.15305164456367
0.64368325471878 0.35603415966034 0.18706622719765
0.70771032571793 0.37556689977646 0.22910067439079
0.76775944232941 0.40075445175171 0.27872171998024
0.82174372673035 0.43206894397736 0.33455517888069
0.86806505918503 0.4695158302784 0.39459854364395
0.90613508224487 0.51264530420303 0.45691832900047
0.93633317947388 0.56071931123734 0.52016794681549
0.95971310138702 0.61273264884949 0.58378410339355
0.97756159305573 0.6672665476799 0.64711397886276
0.99111664295197 0.72243356704712 0.70887368917465
1 0.77591228485107 0.76717507839203
1 0.82535004615784 0.81999117136002
1 0.86883270740509 0.86570900678635
1 0.90535980463028 0.90362203121185
0.079994022846222 0.37454894185066 0.079994022846222
0.079994104802608 0.37454894185066 0.079994022846222
0.080115132033825 0.3745504617691 0.08000010997057
0.080638594925404 0.37455725669861 0.080026470124722
0.081874124705791 0.37457314133644 0.080088973045349
0.084266267716885 0.37460425496101 0.080210901796818
0.088446885347366 0.37465941905975 0.080427303910255
0.095283195376396 0.37475180625916 0.080789871513844
0.10591100156307 0.37490123510361 0.081374913454056
0.12173116952181 0.37513688206673 0.082294225692749
0.14429262280464 0.37550058960915 0.083708979189396
0.17507264018059 0.37605446577072 0.085850484669209
0.21500889956951 0.37688758969307 0.089042969048023
0.26400476694107 0.37812784314156 0.093735292553902
0.32067841291428 0.37995767593384 0.10053300112486
0.38265341520309 0.38263183832169 0.11022675782442
