Profiles/LUTs/Default.cube
TITLE "Generated by Resolve"
LUT_3D_SIZE 33
0 0 0
0 0 0
0 0 0
0.000183108 0 0
0.00607309 0 0
0.0119783 0 0
0.0190433 0 0
0.0285191 0 0
0.0412604 0 0
0.0583658 0 0
0.0813306 0 0
0.112169 0 0
0.153567 0 0
0.209155 0 0
0.283818 0 0
0.384039 0 0
0.518624 0 0
0.699336 0 0
0.941985 0 0
1 0 0
1 0 0
1 0 0
1 0 0
1 0 0
1 0 0
1 0 0
1 0 0
1 0 0
1 0 0
1 0 0
1 0 0
1 0 0
1 0 0
0 0 0
0 0 0
0 0 0
0.000183108 0 0
0.00607309 0 0
0.0119783 0 0
0.0190433 0 0
0.0285191 0 0
0.0412604 0 0
0.0583658 0 0
0.0813306 0 0
0.112169 0 0
0.153567 0 0
0.209155 0 0
0.283818 0 0
0.384039 0 0
0.518624 0 0
0.699336 0 0
0.941985 0 0
1 0 0
1 0 0
1 0 0
1 0 0
1 0 0
1 0 0
1 0 0
1 0 0
1 0 0
1 0 0
1 0 0
1 0 0
1 0 0
1 0 0
0 0 0
0 0 0
0 0 0
0.000183108 0 0
0.00607309 0 0
0.0119783 0 0
0.0190433 0 0
0.0285191 0 0
0.0412604 0 0
0.0583658 0 0
0.0813306 0 0
0.112169 0 0
0.153567 0 0
0.209155 0 0
0.283818 0 0
0.384039 0 0
0.518624 0 0
0.699336 0 0
0.941985 0 0
1 0 0
1 0 0
1 0 0
1 0 0
1 0 0
1 0 0
1 0 0
1 0 0
1 0 0
1 0 0
1 0 0
1 0 0
1 0 0
1 0 0
0 0.000183108 0
0 0.000183108 0
0 0.000183108 0
0.000183108 0.000183108 0
0.00607309 0.000183108 0
0.0119783 0.000183108 0
0.0190433 0.000183108 0
0.0285191 0.000183108 0
0.0412604 0.000183108 0
0.0583658 0.000183108 0
0.0813306 0.000183108 0
0.112169 0.000183108 0
0.153567 0.000183108 0
0.209155 0.000183108 0
0.283818 0.000183108 0
0.384039 0.000183108 0
0.518624 0.000183108 0
0.699336 0.000183108 0
0.941985 0.000183108 0
1 0.000183108 0
1 0.000183108 0
1 0.000183108 0
1 0.000183108 0
1 0.000183108 0
1 0.000183108 0
1 0.000183108 0
1 0.000183108 0
1 0.000183108 0
1 0.000183108 0
1 0.000183108 0
1 0.000183108 0
1 0.000183108 0
1 0.000183108 0
0 0.00607309 0
0 0.00607309 0
0 0.00607309 0
0.000183108 0.00607309 0
0.00607309 0.00607309 0
0.0119783 0.00607309 0
0.0190433 0.00607309 0
0.0285191 0.00607309 0
0.0412604 0.00607309 0
0.0583658 0.00607309 0
0.0813306 0.00607309 0
0.112169 0.00607309 0
0.153567 0.00607309 0
0.209155 0.00607309 0
0.283818 0.00607309 0
0.384039 0.00607309 0
0.518624 0.00607309 0
0.699336 0.00607309 0
0.941985 0.00607309 0
1 0.00607309 0
1 0.00607309 0
1 0.00607309 0
1 0.00607309 0
1 0.00607309 0
1 0.00607309 0
1 0.00607309 0
1 0.00607309 0
1 0.00607309 0
1 0.00607309 0
1 0.00607309 0
1 0.00607309 0
1 0.00607309 0
1 0.00607309 0
0 0.0119783 0
0 0.0119783 0
0 0.0119783 0
0.000183108 0.0119783 0
0.00607309 0.0119783 0
0.0119783 0.0119783 0
0.0190433 0.0119783 0
0.0285191 0.0119783 0
0.0412604 0.0119783 0
0.0583658 0.0119783 0
0.0813306 0.0119783 0
0.112169 0.0119783 0
0.153567 0.0119783 0
0.209155 0.0119783 0
0.283818 0.0119783 0
0.384039 0.0119783 0
0.518624 0.0119783 0
0.699336 0.0119783 0
0.941985 0.0119783 0
1 0.0119783 0
1 0.0119783 0
1 0.0119783 0
1 0.0119783 0
1 0.0119783 0
1 0.0119783 0
1 0.0119783 0
1 0.0119783 0
1 0.0119783 0
1 0.0119783 0
1 0.0119783 0
1 0.0119783 0
1 0.0119783 0
1 0.0119783 0
0 0.0190433 0
0 0.0190433 0
0 0.0190433 0
0.000183108 0.0190433 0
0.00607309 0.0190433 0
0.0119783 0.0190433 0
0.0190433 0.0190433 0
0.0285191 0.0190433 0
0.0412604 0.0190433 0
0.0583658 0.0190433 0
0.0813306 0.0190433 0
0.112169 0.0190433 0
0.153567 0.0190433 0
0.209155 0.0190433 0
0.283818 0.0190433 0
0.384039 0.0190433 0
0.518624 0.0190433 0
0.699336 0.0190433 0
0.941985 0.0190433 0
1 0.0190433 0
1 0.0190433 0
1 0.0190433 0
1 0.0190433 0
1 0.0190433 0
1 0.0190433 0
1 0.0190433 0
1 0.0190433 0
1 0.0190433 0
1 0.0190433 0
1 0.0190433 0
1 0.0190433 0
1 0.0190433 0
1 0.0190433 0
0 0.0285191 0
0 0.0285191 0
0 0.0285191 0
0.000183108 0.0285191 0
0.00607309 0.0285191 0
0.0119783 0.0285191 0
0.0190433 0.0285191 0
0.0285191 0.0285191 0
0.0412604 0.0285191 0
0.0583658 0.0285191 0
0.0813306 0.0285191 0
0.112169 0.0285191 0
0.153567 0.0285191 0
0.209155 0.0285191 0
0.283818 0.0285191 0
0.384039 0.0285191 0
0.518624 0.0285191 0
0.699336 0.0285191 0
0.941985 0.0285191 0
1 0.0285191 0
1 0.0285191 0
1 0.0285191 0
1 0.0285191 0
1 0.0285191 0
1 0.0285191 0
1 0.0285191 0
1 0.0285191 0
1 0.0285191 0
1 0.0285191 0
1 0.0285191 0
1 0.0285191 0
1 0.0285191 0
1 0.0285191 0
0 0.0412604 0
0 0.0412604 0
0 0.0412604 0
0.000183108 0.0412604 0
0.00607309 0.0412604 0
0.0119783 0.0412604 0
0.0190433 0.0412604 0
0.0285191 0.0412604 0
0.0412604 0.0412604 0
0.0583658 0.0412604 0
0.0813306 0.0412604 0
0.112169 0.0412604 0
0.153567 0.0412604 0
0.209155 0.0412604 0
0.283818 0.0412604 0
0.384039 0.0412604 0
0.518624 0.0412604 0
0.699336 0.0412604 0
0.941985 0.0412604 0
1 0.0412604 0
1 0.0412604 0
1 0.0412604 0
1 0.0412604 0
1 0.0412604 0
1 0.0412604 0
1 0.0412604 0
1 0.0412604 0
1 0.0412604 0
1 0.0412604 0
1 0.0412604 0
1 0.0412604 0
1 0.0412604 0
1 0.0412604 0
0 0.0583658 0
0 0.0583658 0
0 0.0583658 0
0.000183108 0.0583658 0
0.00607309 0.0583658 0
0.0119783 0.0583658 0
0.0190433 0.0583658 0
0.0285191 0.0583658 0
0.0412604 0.0583658 0
0.0583658 0.0583658 0
0.0813306 0.0583658 0
0.112169 0.0583658 0
0.153567 0.0583658 0
0.209155 0.0583658 0
0.283818 0.0583658 0
0.384039 0.0583658 0
0.518624 0.0583658 0
0.699336 0.0583658 0
0.941985 0.0583658 0
1 0.0583658 0
1 0.0583658 0
1 0.0583658 0
1 0.0583658 0
1 0.0583658 0
1 0.0583658 0
1 0.0583658 0
1 0.0583658 0
1 0.0583658 0
1 0.0583658 0
1 0.0583658 0
1 0.0583658 0
1 0.0583658 0
1 0.0583658 0
0 0.0813306 0
0 0.0813306 0
0 0.0813306 0
0.000183108 0.0813306 0
0.00607309 0.0813306 0
0.0119783 0.0813306 0
0.0190433 0.0813306 0
0.0285191 0.0813306 0
0.0412604 0.0813306 0
0.0583658 0.0813306 0
0.0813306 0.0813306 0
0.112169 0.0813306 0
0.153567 0.0813306 0
0.209155 0.0813306 0
0.283818 0.0813306 0
0.384039 0.0813306 0
0.518624 0.0813306 0
0.699336 0.0813306 0
0.941985 0.0813306 0
1 0.0813306 0
1 0.0813306 0
1 0.0813306 0
1 0.0813306 0
1 0.0813306 0
1 0.0813306 0
1 0.0813306 0
1 0.0813306 0
1 0.0813306 0
1 0.0813306 0
1 0.0813306 0
1 0.0813306 0
1 0.0813306 0
1 0.0813306 0
0 0.112169 0
0 0.112169 0
0 0.112169 0
0.000183108 0.112169 0
0.00607309 0.112169 0
0.0119783 0.112169 0
0.0190433 0.112169 0
0.0285191 0.112169 0
0.0412604 0.112169 0
0.0583658 0.112169 0
0.0813306 0.112169 0
0.112169 0.112169 0
0.153567 0.112169 0
0.209155 0.112169 0
0.283818 0.112169 0
0.384039 0.112169 0
0.518624 0.112169 0
0.699336 0.112169 0
0.941985 0.112169 0
1 0.112169 0
1 0.112169 0
1 0.112169 0
1 0.112169 0
1 0.112169 0
1 0.112169 0
1 0.112169 0
1 0.112169 0
1 0.112169 0
1 0.112169 0
1 0.112169 0
1 0.112169 0
1 0.112169 0
1 0.112169 0
0 0.153567 0
0 0.153567 0
0 0.153567 0
0.000183108 0.153567 0
0.00607309 0.153567 0
0.0119783 0.153567 0
0.0190433 0.153567 0
0.0285191 0.153567 0
0.0412604 0.153567 0
0.0583658 0.153567 0
0.0813306 0.153567 0
0.112169 0.153567 0
0.153567 0.153567 0
0.209155 0.153567 0
0.283818 0.153567 0
0.384039 0.153567 0
0.518624 0.153567 0
0.699336 0.153567 0
0.941985 0.153567 0
1 0.153567 0
1 0.153567 0
1 0.153567 0
1 0.153567 0
1 0.153567 0
1 0.153567 0
1 0.153567 0
1 0.153567 0
1 0.153567 0
1 0.153567 0
1 0.153567 0
1 0.153567 0
1 0.153567 0
1 0.153567 0
0 0.209155 0
0 0.209155 0
0 0.209155 0
0.000183108 0.209155 0
0.00607309 0.209155 0
0.0119783 0.209155 0
0.0190433 0.209155 0
0.0285191 0.209155 0
0.0412604 0.209155 0
0.0583658 0.209155 0
0.0813306 0.209155 0
0.112169 0.209155 0
0.153567 0.209155 0
0.209155 0.209155 0
0.283818 0.209155 0
0.384039 0.209155 0
0.518624 0.209155 0
0.699336 0.209155 0
0.941985 0.209155 0
1 0.209155 0
1 0.209155 0
1 0.209155 0
1 0.209155 0
1 0.209155 0
1 0.209155 0
1 0.209155 0
1 0.209155 0
1 0.209155 0
1 0.209155 0
1 0.209155 0
1 0.209155 0
1 0.209155 0
1 0.209155 0
0 0.283818 0
0 0.283818 0
0 0.283818 0
0.000183108 0.283818 0
0.00607309 0.283818 0
0.0119783 0.283818 0
0.0190433 0.283818 0
0.0285191 0.283818 0
0.0412604 0.283818 0
0.0583658 0.283818 0
0.0813306 0.283818 0
0.112169 0.283818 0
0.153567 0.283818 0
0.209155 0.283818 0
0.283818 0.283818 0
0.384039 0.283818 0
0.518624 0.283818 0
0.699336 0.283818 0
0.941985 0.283818 0
1 0.283818 0
1 0.283818 0
1 0.283818 0
1 0.283818 0
1 0.283818 0
1 0.283818 0
1 0.283818 0
1 0.283818 0
1 0.283818 0
1 0.283818 0
1 0.283818 0
1 0.283818 0
1 0.283818 0
1 0.283818 0
0 0.384039 0
0 0.384039 0
0 0.384039 0
0.000183108 0.384039 0
0.00607309 0.384039 0
0.0119783 0.384039 0
0.0190433 0.384039 0
0.0285191 0.384039 0
0.0412604 0.384039 0
0.0583658 0.384039 0
0.0813306 0.384039 0
0.112169 0.384039 0
0.153567 0.384039 0
0.209155 0.384039 0
0.283818 0.384039 0
0.384039 0.384039 0
0.518624 0.384039 0
0.699336 0.384039 0
0.941985 0.384039 0
1 0.384039 0
1 0.384039 0
1 0.384039 0
1 0.384039 0
1 0.384039 0
1 0.384039 0
1 0.384039 0
1 0.384039 0
1 0.384039 0
1 0.384039 0
1 0.384039 0
1 0.384039 0
1 0.384039 0
1 0.384039 0
0 0.518624 0
0 0.518624 0
0 0.518624 0
0.000183108 0.518624 0
0.00607309 0.518624 0
0.0119783 0.518624 0
0.0190433 0.518624 0
0.0285191 0.518624 0
0.0412604 0.518624 0
0.0583658 0.518624 0
0.0813306 0.518624 0
0.112169 0.518624 0
0.153567 0.518624 0
0.209155 0.518624 0
0.283818 0.518624 0
0.384039 0.518624 0
0.518624 0.518624 0
0.699336 0.518624 0
0.941985 0.518624 0
1 0.518624 0
1 0.518624 0
1 0.518624 0
1 0.518624 0
1 0.518624 0
1 0.518624 0
1 0.518624 0
1 0.518624 0
1 0.518624 0
1 0.518624 0
1 0.518624 0
1 0.518624 0
1 0.518624 0
1 0.518624 0
0 0.699336 0
0 0.699336 0
0 0.699336 0
0.000183108 0.699336 0
0.00607309 0.699336 0
0.0119783 0.699336 0
0.0190433 0.699336 0
0.0285191 0.699336 0
0.0412604 0.699336 0
0.0583658 0.699336 0
0.0813306 0.699336 0
0.112169 0.699336 0
0.153567 0.699336 0
0.209155 0.699336 0
0.283818 0.699336 0
0.384039 0.699336 0
0.518624 0.699336 0
0.699336 0.699336 0
0.941985 0.699336 0
1 0.699336 0
1 0.699336 0
1 0.699336 0
1 0.699336 0
1 0.699336 0
1 0.699336 0
1 0.699336 0
1 0.699336 0
1 0.699336 0
1 0.699336 0
1 0.699336 0
1 0.699336 0
1 0.699336 0
1 0.699336 0
0 0.941985 0
0 0.941985 0
0 0.941985 0
0.000183108 0.941985 0
0.00607309 0.941985 0
0.0119783 0.941985 0
0.0190433 0.941985 0
0.0285191 0.941985 0
0.0412604 0.941985 0
0.0583658 0.941985 0
0.0813306 0.941985 0
0.112169 0.941985 0
0.153567 0.941985 0
0.209155 0.941985 0
0.283818 0.941985 0
0.384039 0.941985 0
0.518624 0.941985 0
0.699336 0.941985 0
0.941985 0.941985 0
1 0.941985 0
1 0.941985 0
1 0.941985 0
1 0.941985 0
1 0.941985 0
1 0.941985 0
1 0.941985 0
1 0.941985 0
1 0.941985 0
1 0.941985 0
1 0.941985 0
1 0.941985 0
1 0.941985 0
1 0.941985 0
0 1 0
0 1 0
0 1 0
0.000183108 1 0
0.00607309 1 0
0.0119783 1 0
0.0190433 1 0
0.0285191 1 0
0.0412604 1 0
0.0583658 1 0
0.0813306 1 0
0.112169 1 0
0.153567 1 0
0.209155 1 0
0.283818 1 0
0.384039 1 0
0.518624 1 0
0.699336 1 0
0.941985 1 0
1 1 0
1 1 0
1 1 0
1 1 0
1 1 0
1 1 0
1 1 0
1 1 0
1 1 0
1 1 0
1 1 0
1 1 0
1 1 0
1 1 0
0 1 0
0 1 0
0 1 0
0.000183108 1 0
0.00607309 1 0
0.0119783 1 0
0.0190433 1 0
0.0285191 1 0
0.0412604 1 0
0.0583658 1 0
0.0813306 1 0
0.112169 1 0
0.153567 1 0
0.209155 1 0
0.283818 1 0
0.384039 1 0
0.518624 1 0
0.699336 1 0
0.941985 1 0
1 1 0
1 1 0
1 1 0
1 1 0
1 1 0
1 1 0
1 1 0
1 1 0
1 1 0
1 1 0
1 1 0
1 1 0
1 1 0
1 1 0
0 1 0
0 1 0
0 1 0
0.000183108 1 0
0.00607309 1 0
0.0119783 1 0
0.0190433 1 0
0.0285191 1 0
0.0412604 1 0
0.0583658 1 0
0.0813306 1 0
0.112169 1 0
0.153567 1 0
0.209155 1 0
0.283818 1 0
0.384039 1 0
0.518624 1 0
0.699336 1 0
0.941985 1 0
1 1 0
1 1 0
1 1 0
1 1 0
1 1 0
1 1 0
1 1 0
1 1 0
1 1 0
1 1 0
1 1 0
1 1 0
1 1 0
1 1 0
0 1 0
0 1 0
0 1 0
0.000183108 1 0
0.00607309 1 0
0.0119783 1 0
0.0190433 1 0
0.0285191 1 0
0.0412604 1 0
0.0583658 1 0
0.0813306 1 0
0.112169 1 0
0.153567 1 0
0.209155 1 0
0.283818 1 0
0.384039 1 0
0.518624 1 0
0.699336 1 0
0.941985 1 0
1 1 0
1 1 0
1 1 0
1 1 0
1 1 0
1 1 0
1 1 0
1 1 0
1 1 0
1 1 0
1 1 0
1 1 0
1 1 0
1 1 0
0 1 0
0 1 0
0 1 0
0.000183108 1 0
0.00607309 1 0
0.0119783 1 0
0.0190433 1 0
0.0285191 1 0
0.0412604 1 0
0.0583658 1 0
0.0813306 1 0
0.112169 1 0
0.153567 1 0
0.209155 1 0
0.283818 1 0
0.384039 1 0
0.518624 1 0
0.699336 1 0
0.941985 1 0
1 1 0
1 1 0
1 1 0
1 1 0
1 1 0
1 1 0
1 1 0
1 1 0
1 1 0
1 1 0
1 1 0
1 1 0
1 1 0
1 1 0
0 1 0
0 1 0
0 1 0
0.000183108 1 0
0.00607309 1 0
0.0119783 1 0
0.0190433 1 0
0.0285191 1 0
0.0412604 1 0
0.0583658 1 0
0.0813306 1 0
0.112169 1 0
0.153567 1 0
0.209155 1 0
0.283818 1 0
0.384039 1 0
0.518624 1 0
0.699336 1 0
0.941985 1 0
1 1 0
1 1 0
1 1 0
1 1 0
1 1 0
1 1 0
1 1 0
1 1 0
1 1 0
1 1 0
1 1 0
1 1 0
1 1 0
1 1 0
0 1 0
0 1 0
0 1 0
0.000183108 1 0
0.00607309 1 0
0.0119783 1 0
0.0190433 1 0
0.0285191 1 0
0.0412604 1 0
0.0583658 1 0
0.0813306 1 0
0.112169 1 0
0.153567 1 0
0.209155 1 0
0.283818 1 0
0.384039 1 0
0.518624 1 0
0.699336 1 0
0.941985 1 0
1 1 0
1 1 0
1 1 0
1 1 0
1 1 0
1 1 0
1 1 0
1 1 0
1 1 0
1 1 0
1 1 0
1 1 0
1 1 0
1 1 0
0 1 0
0 1 0
0 1 0
0.000183108 1 0
0.00607309 1 0
0.0119783 1 0
0.0190433 1 0
0.0285191 1 0
0.0412604 1 0
0.0583658 1 0
0.0813306 1 0
0.112169 1 0
0.153567 1 0
0.209155 1 0
0.283818 1 0
0.384039 1 0
0.518624 1 0
0.699336 1 0
0.941985 1 0
1 1 0
1 1 0
1 1 0
1 1 0
1 1 0
1 1 0
1 1 0
1 1 0
1 1 0
1 1 0
1 1 0
1 1 0
1 1 0
1 1 0
0 1 0
0 1 0
0 1 0
0.000183108 1 0
0.00607309 1 0
0.0119783 1 0
0.0190433 1 0
0.0285191 1 0
0.0412604 1 0
