Profiles/LUTs/Default.cube
TITLE "Generated by Resolve"
LUT_3D_SIZE 5
0 0 0
0.0412604 0 0
0.518624 0 0
1 0 0
1 0 0
0 0.0412604 0
0.0412604 0.0412604 0
0.518624 0.0412604 0
1 0.0412604 0
1 0.0412604 0
0 0.518624 0
0.0412604 0.518624 0
0.518624 0.518624 0
1 0.518624 0
1 0.518624 0
0 1 0
0.0412604 1 0
0.518624 1 0
1 1 0
1 1 0
0 1 0
0.0412604 1 0
0.518624 1 0
1 1 0
1 1 0
0 0 0.0412604
0.0412604 0 0.0412604
0.518624 0 0.0412604
1 0 0.0412604
1 0 0.0412604
0 0.0412604 0.0412604
0.0412604 0.0412604 0.0412604
0.518624 0.0412604 0.0412604
1 0.0412604 0.0412604
1 0.0412604 0.0412604
0 0.518624 0.0412604
0.0412604 0.518624 0.0412604
0.518624 0.518624 0.0412604
1 0.518624 0.0412604
1 0.518624 0.0412604
0 1 0.0412604
0.0412604 1 0.0412604
0.518624 1 0.0412604
1 1 0.0412604
1 1 0.0412604
0 1 0.0412604
0.0412604 1 0.0412604
0.518624 1 0.0412604
1 1 0.0412604
1 1 0.0412604
0 0 0.518624
0.0412604 0 0.518624
0.518624 0 0.518624
1 0 0.518624
1 0 0.518624
0 0.0412604 0.518624
0.0412604 0.0412604 0.518624
0.518624 0.0412604 0.518624
1 0.0412604 0.518624
1 0.0412604 0.518624
0 0.518624 0.518624
0.0412604 0.518624 0.518624
0.518624 0.518624 0.518624
1 0.518624 0.518624
1 0.518624 0.518624
0 1 0.518624
0.0412604 1 0.518624
0.518624 1 0.518624
1 1 0.518624
1 1 0.518624
0 1 0.518624
0.0412604 1 0.518624
0.518624 1 0.518624
1 1 0.518624
1 1 0.518624
0 0 1
0.0412604 0 1
0.518624 0 1
1 0 1
1 0 1
0 0.0412604 1
0.0412604 0.0412604 1
0.518624 0.0412604 1
1 0.0412604 1
1 0.0412604 1
0 0.518624 1
0.0412604 0.518624 1
0.518624 0.518624 1
1 0.518624 1
1 0.518624 1
0 1 1
0.0412604 1 1
0.518624 1 1
1 1 1
1 1 1
0 1 1
0.0412604 1 1
0.518624 1 1
1 1 1
1 1 1
0 0 1
0.0412604 0 1
0.518624 0 1
1 0 1
1 0 1
0 0.0412604 1
0.0412604 0.0412604 1
0.518624 0.0412604 1
1 0.0412604 1
1 0.0412604 1
0 0.518624 1
0.0412604 0.518624 1
0.518624 0.518624 1
1 0.518624 1
1 0.518624 1
0 1 1
0.0412604 1 1
0.518624 1 1
1 1 1
1 1 1
0 1 1
0.0412604 1 1
0.518624 1 1
1 1 1
1 1 1
