Profiles/LUTs/Filmic.cube
LUT_3D_SIZE 5
1.4776850548515e-05 1.4776850548515e-05 1.4776850548515e-05
0.084116838872433 1.4776850548515e-05 1.4776850548515e-05
0.46187821030617 1.4776850548515e-05 1.4776850548515e-05
0.93774908781052 1.4776850548515e-05 1.4776850548515e-05
1 0.41634041070938 0.41634041070938
1.4776850548515e-05 0.084116838872433 1.4776850548515e-05
0.084116838872433 0.084116838872433 1.4776850548515e-05
0.46187821030617 0.084116838872433 1.4776850548515e-05
0.93774908781052 0.084116838872433 1.4776850548515e-05
1 0.42861899733543 0.41634041070938
1.4776850548515e-05 0.46187821030617 1.4776850548515e-05
0.084116838872433 0.46187821030617 1.4776850548515e-05
0.46187821030617 0.46187821030617 1.4776850548515e-05
0.93774908781052 0.46187821030617 1.4776850548515e-05
1 0.57687520980835 0.41634041070938
1.4776850548515e-05 0.93774908781052 1.4776850548515e-05
0.084116838872433 0.93774908781052 1.4776850548515e-05
0.46187821030617 0.93774908781052 1.4776850548515e-05
0.93774908781052 0.93774908781052 1.4776850548515e-05
1 0.94006055593491 0.41634041070938
0.41634041070938 1 0.41634041070938
0.42861899733543 1 0.41634041070938
0.57687520980835 1 0.41634041070938
0.94006055593491 1 0.41634041070938
1 1 0.41634041070938
1.4776850548515e-05 1.4776850548515e-05 0.084116838872433
0.084116838872433 1.4776850548515e-05 0.084116838872433
0.46187821030617 1.4776850548515e-05 0.084116838872433
0.93774908781052 1.4776850548515e-05 0.084116838872433
1 0.41634041070938 0.42861899733543
1.4776850548515e-05 0.084116838872433 0.084116838872433
0.084116838872433 0.084116838872433 0.084116838872433
0.46187821030617 0.084116838872433 0.084116838872433
0.93774908781052 0.084116838872433 0.084116838872433
1 0.42861899733543 0.42861899733543
1.4776850548515e-05 0.46187821030617 0.084116838872433
0.084116838872433 0.46187821030617 0.084116838872433
0.46187821030617 0.46187821030617 0.084116838872433
0.93774908781052 0.46187821030617 0.084116838872433
1 0.57687520980835 0.42861899733543
1.4776850548515e-05 0.93774908781052 0.084116838872433
0.084116838872433 0.93774908781052 0.084116838872433
0.46187821030617 0.93774908781052 0.084116838872433
0.93774908781052 0.93774908781052 0.084116838872433
1 0.94006055593491 0.42861899733543
0.41634041070938 1 0.42861899733543
0.42861899733543 1 0.42861899733543
0.57687520980835 1 0.42861899733543
0.94006055593491 1 0.42861899733543
1 1 0.42861899733543
1.4776850548515e-05 1.4776850548515e-05 0.46187821030617
0.084116838872433 1.4776850548515e-05 0.46187821030617
0.46187821030617 1.4776850548515e-05 0.46187821030617
0.93774908781052 1.4776850548515e-05 0.46187821030617
1 0.41634041070938 0.57687520980835
1.4776850548515e-05 0.084116838872433 0.46187821030617
0.084116838872433 0.084116838872433 0.46187821030617
0.46187821030617 0.084116838872433 0.46187821030617
0.93774908781052 0.084116838872433 0.46187821030617
1 0.42861899733543 0.57687520980835
1.4776850548515e-05 0.46187821030617 0.46187821030617
0.084116838872433 0.46187821030617 0.46187821030617
0.46187821030617 0.46187821030617 0.46187821030617
0.93774908781052 0.46187821030617 0.46187821030617
1 0.57687520980835 0.57687520980835
1.4776850548515e-05 0.93774908781052 0.46187821030617
0.084116838872433 0.93774908781052 0.46187821030617
0.46187821030617 0.93774908781052 0.46187821030617
0.93774908781052 0.93774908781052 0.46187821030617
1 0.94006055593491 0.57687520980835
0.41634041070938 1 0.57687532901764
0.42861899733543 1 0.57687532901764
0.57687520980835 1 0.57687532901764
0.94006055593491 1 0.57687532901764
1 1 0.57687520980835
1.4776850548515e-05 1.4776850548515e-05 0.93774908781052
0.084116838872433 1.4776850548515e-05 0.93774908781052
0.46187821030617 1.4776850548515e-05 0.93774908781052
0.93774908781052 1.4776850548515e-05 0.93774908781052
1 0.41634041070938 0.94006055593491
1.4776850548515e-05 0.084116838872433 0.93774908781052
0.084116838872433 0.084116838872433 0.93774908781052
0.46187821030617 0.084116838872433 0.93774908781052
0.93774908781052 0.084116838872433 0.93774908781052
1 0.42861899733543 0.94006055593491
1.4776850548515e-05 0.46187821030617 0.93774908781052
0.084116838872433 0.46187821030617 0.93774908781052
0.46187821030617 0.46187821030617 0.93774908781052
0.93774908781052 0.46187821030617 0.93774908781052
1 0.57687520980835 0.94006055593491
1.4776850548515e-05 0.93774908781052 0.93774908781052
0.084116838872433 0.93774908781052 0.93774908781052
0.46187821030617 0.93774908781052 0.93774908781052
0.93774908781052 0.93774908781052 0.93774908781052
1 0.94006055593491 0.94006055593491
0.41634041070938 1 0.94006061553955
0.42861899733543 1 0.94006061553955
0.57687520980835 1 0.94006061553955
0.94006055593491 1 0.94006061553955
1 1 0.94006055593491
0.41634041070938 0.41634041070938 1
0.42861899733543 0.41634041070938 1
0.57687520980835 0.41634041070938 1
0.94006055593491 0.41634041070938 1
1 0.41634041070938 1
0.41634041070938 0.42861899733543 1
0.42861899733543 0.42861899733543 1
0.57687520980835 0.42861899733543 1
0.94006055593491 0.42861899733543 1
1 0.42861899733543 1
0.41634041070938 0.57687532901764 1
0.42861899733543 0.57687532901764 1
0.57687520980835 0.57687532901764 1
0.94006055593491 0.57687532901764 1
1 0.57687532901764 1
0.41634041070938 0.94006061553955 1
0.42861899733543 0.94006061553955 1
0.57687520980835 0.94006061553955 1
0.94006055593491 0.94006061553955 1
1 0.94006061553955 1
0.41634041070938 1 1
0.42861899733543 1 1
0.57687520980835 1 1
0.94006055593491 1 1
1 1 1
