Profiles/LUTs/Filmic.cube
LUT_3D_SIZE 33
1.4776850548515e-05 1.4776850548515e-05 1.4776850548515e-05
1.4776850548515e-05 1.4776850548515e-05 1.4776850548515e-05
0.0083881467580795 1.4776850548515e-05 1.4776850548515e-05
0.018953621387482 1.4776850548515e-05 1.4776850548515e-05
0.029196513816714 1.4776850548515e-05 1.4776850548515e-05
0.039661563932896 1.4776850548515e-05 1.4776850548515e-05
0.051190692931414 1.4776850548515e-05 1.4776850548515e-05
0.065737754106522 1.4776850548515e-05 1.4776850548515e-05
0.084116838872433 1.4776850548515e-05 1.4776850548515e-05
0.10719221830368 1.4776850548515e-05 1.4776850548515e-05
0.13590911030769 1.4776850548515e-05 1.4776850548515e-05
0.17121851444244 1.4776850548515e-05 1.4776850548515e-05
0.21396876871586 1.4776850548515e-05 1.4776850548515e-05
0.26471933722496 1.4776850548515e-05 1.4776850548515e-05
0.32353132963181 1.4776850548515e-05 1.4776850548515e-05
0.38975355029106 1.4776850548515e-05 1.4776850548515e-05
0.46187821030617 1.4776850548515e-05 1.4776850548515e-05
0.53704506158829 1.4776850548515e-05 1.4776850548515e-05
0.6122784614563 1.4776850548515e-05 1.4776850548515e-05
0.68498206138611 1.4776850548515e-05 1.4776850548515e-05
0.75231391191483 1.4776850548515e-05 1.4776850548515e-05
0.8121030330658 1.4776850548515e-05 1.4776850548515e-05
0.86307334899902 1.4776850548515e-05 1.4776850548515e-05
0.90484130382538 1.4776850548515e-05 1.4776850548515e-05
0.93774908781052 1.4776850548515e-05 1.4776850548515e-05
0.96262758970261 1.4776850548515e-05 1.4776850548515e-05
0.98056095838547 1.4776850548515e-05 1.4776850548515e-05
0.99270099401474 0.0017444373806939 0.0017444373806939
1 0.076035276055336 0.076035276055336
1 0.20000441372395 0.20000441372395
1 0.36762076616287 0.36762076616287
1 0.41634041070938 0.41634041070938
1 0.41634041070938 0.41634041070938
1.4776850548515e-05 1.4776850548515e-05 1.4776850548515e-05
1.4776850548515e-05 1.4776850548515e-05 1.4776850548515e-05
0.0083881467580795 1.4776850548515e-05 1.4776850548515e-05
0.018953621387482 1.4776850548515e-05 1.4776850548515e-05
0.029196513816714 1.4776850548515e-05 1.4776850548515e-05
0.039661563932896 1.4776850548515e-05 1.4776850548515e-05
0.051190692931414 1.4776850548515e-05 1.4776850548515e-05
0.065737754106522 1.4776850548515e-05 1.4776850548515e-05
0.084116838872433 1.4776850548515e-05 1.4776850548515e-05
0.10719221830368 1.4776850548515e-05 1.4776850548515e-05
0.13590911030769 1.4776850548515e-05 1.4776850548515e-05
0.17121851444244 1.4776850548515e-05 1.4776850548515e-05
0.21396876871586 1.4776850548515e-05 1.4776850548515e-05
0.26471933722496 1.4776850548515e-05 1.4776850548515e-05
0.32353132963181 1.4776850548515e-05 1.4776850548515e-05
0.38975355029106 1.4776850548515e-05 1.4776850548515e-05
0.46187821030617 1.4776850548515e-05 1.4776850548515e-05
0.53704506158829 1.4776850548515e-05 1.4776850548515e-05
0.6122784614563 1.4776850548515e-05 1.4776850548515e-05
0.68498206138611 1.4776850548515e-05 1.4776850548515e-05
0.75231391191483 1.4776850548515e-05 1.4776850548515e-05
0.8121030330658 1.4776850548515e-05 1.4776850548515e-05
0.86307334899902 1.4776850548515e-05 1.4776850548515e-05
0.90484130382538 1.4776850548515e-05 1.4776850548515e-05
0.93774908781052 1.4776850548515e-05 1.4776850548515e-05
0.96262758970261 1.4776850548515e-05 1.4776850548515e-05
0.98056095838547 1.4776850548515e-05 1.4776850548515e-05
0.99270099401474 0.0017444373806939 0.0017444373806939
1 0.076035276055336 0.076035276055336
1 0.20000441372395 0.20000441372395
1 0.36762076616287 0.36762076616287
1 0.41634041070938 0.41634041070938
1 0.41634041070938 0.41634041070938
1.4776850548515e-05 0.0083881467580795 1.4776850548515e-05
1.4776850548515e-05 0.0083881467580795 1.4776850548515e-05
0.0083881467580795 0.0083881467580795 1.4776850548515e-05
0.018953621387482 0.0083881467580795 1.4776850548515e-05
0.029196513816714 0.0083881467580795 1.4776850548515e-05
0.039661563932896 0.0083881467580795 1.4776850548515e-05
0.051190692931414 0.0083881467580795 1.4776850548515e-05
0.065737754106522 0.0083881467580795 1.4776850548515e-05
0.084116838872433 0.0083881467580795 1.4776850548515e-05
0.10719221830368 0.0083881467580795 1.4776850548515e-05
0.13590911030769 0.0083881467580795 1.4776850548515e-05
0.17121851444244 0.0083881467580795 1.4776850548515e-05
0.21396876871586 0.0083881467580795 1.4776850548515e-05
0.26471933722496 0.0083881467580795 1.4776850548515e-05
0.32353132963181 0.0083881467580795 1.4776850548515e-05
0.38975355029106 0.0083881467580795 1.4776850548515e-05
0.46187821030617 0.0083881467580795 1.4776850548515e-05
0.53704506158829 0.0083881467580795 1.4776850548515e-05
0.6122784614563 0.0083881467580795 1.4776850548515e-05
0.68498206138611 0.0083881467580795 1.4776850548515e-05
0.75231391191483 0.0083881467580795 1.4776850548515e-05
0.8121030330658 0.0083881467580795 1.4776850548515e-05
0.86307334899902 0.0083881467580795 1.4776850548515e-05
0.90484130382538 0.0083881467580795 1.4776850548515e-05
0.93774908781052 0.0083881467580795 1.4776850548515e-05
0.96262758970261 0.0083881467580795 1.4776850548515e-05
0.98056095838547 0.0083881467580795 1.4776850548515e-05
0.99270099401474 0.0096650738269091 0.0017444373806939
1 0.079220831394196 0.076035276055336
1 0.20163761079311 0.20000441372395
1 0.36836433410645 0.36762076616287
1 0.41696473956108 0.41634041070938
1 0.41696473956108 0.41634041070938
1.4776850548515e-05 0.018953621387482 1.4776850548515e-05
1.4776850548515e-05 0.018953621387482 1.4776850548515e-05
0.0083881467580795 0.018953621387482 1.4776850548515e-05
0.018953621387482 0.018953621387482 1.4776850548515e-05
0.029196513816714 0.018953621387482 1.4776850548515e-05
0.039661563932896 0.018953621387482 1.4776850548515e-05
0.051190692931414 0.018953621387482 1.4776850548515e-05
0.065737754106522 0.018953621387482 1.4776850548515e-05
0.084116838872433 0.018953621387482 1.4776850548515e-05
0.10719221830368 0.018953621387482 1.4776850548515e-05
0.13590911030769 0.018953621387482 1.4776850548515e-05
0.17121851444244 0.018953621387482 1.4776850548515e-05
0.21396876871586 0.018953621387482 1.4776850548515e-05
0.26471933722496 0.018953621387482 1.4776850548515e-05
0.32353132963181 0.018953621387482 1.4776850548515e-05
0.38975355029106 0.018953621387482 1.4776850548515e-05
0.46187821030617 0.018953621387482 1.4776850548515e-05
0.53704506158829 0.018953621387482 1.4776850548515e-05
0.6122784614563 0.018953621387482 1.4776850548515e-05
0.68498206138611 0.018953621387482 1.4776850548515e-05
0.75231391191483 0.018953621387482 1.4776850548515e-05
0.8121030330658 0.018953621387482 1.4776850548515e-05
0.86307334899902 0.018953621387482 1.4776850548515e-05
0.90484130382538 0.018953621387482 1.4776850548515e-05
0.93774908781052 0.018953621387482 1.4776850548515e-05
0.96262758970261 0.018953621387482 1.4776850548515e-05
0.98056095838547 0.018953621387482 1.4776850548515e-05
0.99270099401474 0.019975947216153 0.0017444373806939
1 0.08470593392849 0.076035276055336
1 0.20439413189888 0.20000441372395
1 0.36965703964233 0.36762076616287
1 0.41802793741226 0.41634041070938
1 0.41802793741226 0.41634041070938
1.4776850548515e-05 0.029196513816714 1.4776850548515e-05
1.4776850548515e-05 0.029196513816714 1.4776850548515e-05
0.0083881467580795 0.029196513816714 1.4776850548515e-05
0.018953621387482 0.029196513816714 1.4776850548515e-05
0.029196513816714 0.029196513816714 1.4776850548515e-05
0.039661563932896 0.029196513816714 1.4776850548515e-05
0.051190692931414 0.029196513816714 1.4776850548515e-05
0.065737754106522 0.029196513816714 1.4776850548515e-05
0.084116838872433 0.029196513816714 1.4776850548515e-05
0.10719221830368 0.029196513816714 1.4776850548515e-05
0.13590911030769 0.029196513816714 1.4776850548515e-05
0.17121851444244 0.029196513816714 1.4776850548515e-05
0.21396876871586 0.029196513816714 1.4776850548515e-05
0.26471933722496 0.029196513816714 1.4776850548515e-05
0.32353132963181 0.029196513816714 1.4776850548515e-05
0.38975355029106 0.029196513816714 1.4776850548515e-05
0.46187821030617 0.029196513816714 1.4776850548515e-05
0.53704506158829 0.029196513816714 1.4776850548515e-05
0.6122784614563 0.029196513816714 1.4776850548515e-05
0.68498206138611 0.029196513816714 1.4776850548515e-05
0.75231391191483 0.029196513816714 1.4776850548515e-05
0.8121030330658 0.029196513816714 1.4776850548515e-05
0.86307334899902 0.029196513816714 1.4776850548515e-05
0.90484130382538 0.029196513816714 1.4776850548515e-05
0.93774908781052 0.029196513816714 1.4776850548515e-05
0.96262758970261 0.029196513816714 1.4776850548515e-05
0.98056095838547 0.029196513816714 1.4776850548515e-05
0.99270099401474 0.030028680339456 0.0017444373806939
1 0.090659596025944 0.076035276055336
1 0.20734938979149 0.20000441372395
1 0.37115702033043 0.36762076616287
1 0.41922533512115 0.41634041070938
1 0.41922533512115 0.41634041070938
1.4776850548515e-05 0.039661563932896 1.4776850548515e-05
1.4776850548515e-05 0.039661563932896 1.4776850548515e-05
0.0083881467580795 0.039661563932896 1.4776850548515e-05
0.018953621387482 0.039661563932896 1.4776850548515e-05
0.029196513816714 0.039661563932896 1.4776850548515e-05
0.039661563932896 0.039661563932896 1.4776850548515e-05
0.051190692931414 0.039661563932896 1.4776850548515e-05
0.065737754106522 0.039661563932896 1.4776850548515e-05
0.084116838872433 0.039661563932896 1.4776850548515e-05
0.10719221830368 0.039661563932896 1.4776850548515e-05
0.13590911030769 0.039661563932896 1.4776850548515e-05
0.17121851444244 0.039661563932896 1.4776850548515e-05
0.21396876871586 0.039661563932896 1.4776850548515e-05
0.26471933722496 0.039661563932896 1.4776850548515e-05
0.32353132963181 0.039661563932896 1.4776850548515e-05
0.38975355029106 0.039661563932896 1.4776850548515e-05
0.46187821030617 0.039661563932896 1.4776850548515e-05
0.53704506158829 0.039661563932896 1.4776850548515e-05
0.6122784614563 0.039661563932896 1.4776850548515e-05
0.68498206138611 0.039661563932896 1.4776850548515e-05
0.75231391191483 0.039661563932896 1.4776850548515e-05
0.8121030330658 0.039661563932896 1.4776850548515e-05
0.86307334899902 0.039661563932896 1.4776850548515e-05
0.90484130382538 0.039661563932896 1.4776850548515e-05
0.93774908781052 0.039661563932896 1.4776850548515e-05
0.96262758970261 0.039661563932896 1.4776850548515e-05
0.98056095838547 0.039661563932896 1.4776850548515e-05
0.99270099401474 0.040425721555948 0.0017444373806939
1 0.096965320408344 0.076035276055336
1 0.21115507185459 0.20000441372395
1 0.37280294299126 0.36762076616287
1 0.42067635059357 0.41634041070938
1 0.42067635059357 0.41634041070938
1.4776850548515e-05 0.051190692931414 1.4776850548515e-05
1.4776850548515e-05 0.051190692931414 1.4776850548515e-05
0.0083881467580795 0.051190692931414 1.4776850548515e-05
0.018953621387482 0.051190692931414 1.4776850548515e-05
0.029196513816714 0.051190692931414 1.4776850548515e-05
0.039661563932896 0.051190692931414 1.4776850548515e-05
0.051190692931414 0.051190692931414 1.4776850548515e-05
0.065737754106522 0.051190692931414 1.4776850548515e-05
0.084116838872433 0.051190692931414 1.4776850548515e-05
0.10719221830368 0.051190692931414 1.4776850548515e-05
0.13590911030769 0.051190692931414 1.4776850548515e-05
0.17121851444244 0.051190692931414 1.4776850548515e-05
0.21396876871586 0.051190692931414 1.4776850548515e-05
0.26471933722496 0.051190692931414 1.4776850548515e-05
0.32353132963181 0.051190692931414 1.4776850548515e-05
0.38975355029106 0.051190692931414 1.4776850548515e-05
0.46187821030617 0.051190692931414 1.4776850548515e-05
0.53704506158829 0.051190692931414 1.4776850548515e-05
0.6122784614563 0.051190692931414 1.4776850548515e-05
0.68498206138611 0.051190692931414 1.4776850548515e-05
0.75231391191483 0.051190692931414 1.4776850548515e-05
0.8121030330658 0.051190692931414 1.4776850548515e-05
0.86307334899902 0.051190692931414 1.4776850548515e-05
0.90484130382538 0.051190692931414 1.4776850548515e-05
0.93774908781052 0.051190692931414 1.4776850548515e-05
0.96262758970261 0.051190692931414 1.4776850548515e-05
0.98056095838547 0.051190692931414 1.4776850548515e-05
0.99270099401474 0.051862940192223 0.0017444373806939
1 0.10479421168566 0.076035276055336
1 0.21544250845909 0.20000441372395
1 0.37500551342964 0.36762076616287
1 0.42237377166748 0.41634041070938
1 0.42237377166748 0.41634041070938
1.4776850548515e-05 0.065737754106522 1.4776850548515e-05
1.4776850548515e-05 0.065737754106522 1.4776850548515e-05
0.0083881467580795 0.065737754106522 1.4776850548515e-05
0.018953621387482 0.065737754106522 1.4776850548515e-05
0.029196513816714 0.065737754106522 1.4776850548515e-05
0.039661563932896 0.065737754106522 1.4776850548515e-05
0.051190692931414 0.065737754106522 1.4776850548515e-05
0.065737754106522 0.065737754106522 1.4776850548515e-05
0.084116838872433 0.065737754106522 1.4776850548515e-05
0.10719221830368 0.065737754106522 1.4776850548515e-05
0.13590911030769 0.065737754106522 1.4776850548515e-05
0.17121851444244 0.065737754106522 1.4776850548515e-05
0.21396876871586 0.065737754106522 1.4776850548515e-05
0.26471933722496 0.065737754106522 1.4776850548515e-05
0.32353132963181 0.065737754106522 1.4776850548515e-05
0.38975355029106 0.065737754106522 1.4776850548515e-05
0.46187821030617 0.065737754106522 1.4776850548515e-05
0.53704506158829 0.065737754106522 1.4776850548515e-05
0.6122784614563 0.065737754106522 1.4776850548515e-05
0.68498206138611 0.065737754106522 1.4776850548515e-05
0.75231391191483 0.065737754106522 1.4776850548515e-05
0.8121030330658 0.065737754106522 1.4776850548515e-05
0.86307334899902 0.065737754106522 1.4776850548515e-05
0.90484130382538 0.065737754106522 1.4776850548515e-05
0.93774908781052 0.065737754106522 1.4776850548515e-05
0.96262758970261 0.065737754106522 1.4776850548515e-05
0.98056095838547 0.065737754106522 1.4776850548515e-05
0.99270099401474 0.066319763660431 0.0017444373806939
1 0.11564446240664 0.076035276055336
1 0.22128200531006 0.20000441372395
1 0.37811130285263 0.36762076616287
1 0.42481848597527 0.41634041070938
1 0.42481848597527 0.41634041070938
1.4776850548515e-05 0.084116838872433 1.4776850548515e-05
1.4776850548515e-05 0.084116838872433 1.4776850548515e-05
0.0083881467580795 0.084116838872433 1.4776850548515e-05
0.018953621387482 0.084116838872433 1.4776850548515e-05
0.029196513816714 0.084116838872433 1.4776850548515e-05
0.039661563932896 0.084116838872433 1.4776850548515e-05
0.051190692931414 0.084116838872433 1.4776850548515e-05
0.065737754106522 0.084116838872433 1.4776850548515e-05
0.084116838872433 0.084116838872433 1.4776850548515e-05
0.10719221830368 0.084116838872433 1.4776850548515e-05
0.13590911030769 0.084116838872433 1.4776850548515e-05
0.17121851444244 0.084116838872433 1.4776850548515e-05
0.21396876871586 0.084116838872433 1.4776850548515e-05
0.26471933722496 0.084116838872433 1.4776850548515e-05
0.32353132963181 0.084116838872433 1.4776850548515e-05
0.38975355029106 0.084116838872433 1.4776850548515e-05
0.46187821030617 0.084116838872433 1.4776850548515e-05
0.53704506158829 0.084116838872433 1.4776850548515e-05
0.6122784614563 0.084116838872433 1.4776850548515e-05
0.68498206138611 0.084116838872433 1.4776850548515e-05
0.75231391191483 0.084116838872433 1.4776850548515e-05
0.8121030330658 0.084116838872433 1.4776850548515e-05
0.86307334899902 0.084116838872433 1.4776850548515e-05
0.90484130382538 0.084116838872433 1.4776850548515e-05
0.93774908781052 0.084116838872433 1.4776850548515e-05
0.96262758970261 0.084116838872433 1.4776850548515e-05
0.98056095838547 0.084116838872433 1.4776850548515e-05
0.99270099401474 0.084635958075523 0.0017444373806939
1 0.13002149760723 0.076035276055336
1 0.23030470311642 0.20000441372395
1 0.38247114419937 0.36762076616287
1 0.42861899733543 0.41634041070938
1 0.42861899733543 0.41634041070938
1.4776850548515e-05 0.10719221830368 1.4776850548515e-05
1.4776850548515e-05 0.10719221830368 1.4776850548515e-05
0.0083881467580795 0.10719221830368 1.4776850548515e-05
0.018953621387482 0.10719221830368 1.4776850548515e-05
0.029196513816714 0.10719221830368 1.4776850548515e-05
0.039661563932896 0.10719221830368 1.4776850548515e-05
0.051190692931414 0.10719221830368 1.4776850548515e-05
0.065737754106522 0.10719221830368 1.4776850548515e-05
0.084116838872433 0.10719221830368 1.4776850548515e-05
0.10719221830368 0.10719221830368 1.4776850548515e-05
0.13590911030769 0.10719221830368 1.4776850548515e-05
0.17121851444244 0.10719221830368 1.4776850548515e-05
0.21396876871586 0.10719221830368 1.4776850548515e-05
0.26471933722496 0.10719221830368 1.4776850548515e-05
0.32353132963181 0.10719221830368 1.4776850548515e-05
0.38975355029106 0.10719221830368 1.4776850548515e-05
0.46187821030617 0.10719221830368 1.4776850548515e-05
0.53704506158829 0.10719221830368 1.4776850548515e-05
0.6122784614563 0.10719221830368 1.4776850548515e-05
0.68498206138611 0.10719221830368 1.4776850548515e-05
0.75231391191483 0.10719221830368 1.4776850548515e-05
0.8121030330658 0.10719221830368 1.4776850548515e-05
0.86307334899902 0.10719221830368 1.4776850548515e-05
0.90484130382538 0.10719221830368 1.4776850548515e-05
0.93774908781052 0.10719221830368 1.4776850548515e-05
0.96262758970261 0.10719221830368 1.4776850548515e-05
0.98056095838547 0.10719221830368 1.4776850548515e-05
0.99270099401474 0.10764325410128 0.0017444373806939
1 0.14742843806744 0.076035276055336
1 0.2420142441988 0.20000441372395
1 0.38822618126869 0.36762076616287
1 0.43356704711914 0.41634041070938
1 0.43356704711914 0.41634041070938
1.4776850548515e-05 0.13590911030769 1.4776850548515e-05
1.4776850548515e-05 0.13590911030769 1.4776850548515e-05
0.0083881467580795 0.13590911030769 1.4776850548515e-05
0.018953621387482 0.13590911030769 1.4776850548515e-05
0.029196513816714 0.13590911030769 1.4776850548515e-05
0.039661563932896 0.13590911030769 1.4776850548515e-05
0.051190692931414 0.13590911030769 1.4776850548515e-05
0.065737754106522 0.13590911030769 1.4776850548515e-05
0.084116838872433 0.13590911030769 1.4776850548515e-05
0.10719221830368 0.13590911030769 1.4776850548515e-05
0.13590911030769 0.13590911030769 1.4776850548515e-05
0.17121851444244 0.13590911030769 1.4776850548515e-05
0.21396876871586 0.13590911030769 1.4776850548515e-05
0.26471933722496 0.13590911030769 1.4776850548515e-05
0.32353132963181 0.13590911030769 1.4776850548515e-05
0.38975355029106 0.13590911030769 1.4776850548515e-05
0.46187821030617 0.13590911030769 1.4776850548515e-05
0.53704506158829 0.13590911030769 1.4776850548515e-05
0.6122784614563 0.13590911030769 1.4776850548515e-05
0.68498206138611 0.13590911030769 1.4776850548515e-05
0.75231391191483 0.13590911030769 1.4776850548515e-05
0.8121030330658 0.13590911030769 1.4776850548515e-05
0.86307334899902 0.13590911030769 1.4776850548515e-05
0.90484130382538 0.13590911030769 1.4776850548515e-05
0.93774908781052 0.13590911030769 1.4776850548515e-05
0.96262758970261 0.13590911030769 1.4776850548515e-05
0.98056095838547 0.13590911030769 1.4776850548515e-05
0.99270099401474 0.13628506660461 0.0017444373806939
1 0.17167341709137 0.076035276055336
1 0.25736078619957 0.20000441372395
1 0.39704859256744 0.36762076616287
1 0.44024658203125 0.41634041070938
1 0.44024658203125 0.41634041070938
1.4776850548515e-05 0.17121851444244 1.4776850548515e-05
1.4776850548515e-05 0.17121851444244 1.4776850548515e-05
0.0083881467580795 0.17121851444244 1.4776850548515e-05
0.018953621387482 0.17121851444244 1.4776850548515e-05
0.029196513816714 0.17121851444244 1.4776850548515e-05
0.039661563932896 0.17121851444244 1.4776850548515e-05
0.051190692931414 0.17121851444244 1.4776850548515e-05
0.065737754106522 0.17121851444244 1.4776850548515e-05
0.084116838872433 0.17121851444244 1.4776850548515e-05
0.10719221830368 0.17121851444244 1.4776850548515e-05
0.13590911030769 0.17121851444244 1.4776850548515e-05
0.17121851444244 0.17121851444244 1.4776850548515e-05
0.21396876871586 0.17121851444244 1.4776850548515e-05
0.26471933722496 0.17121851444244 1.4776850548515e-05
0.32353132963181 0.17121851444244 1.4776850548515e-05
0.38975355029106 0.17121851444244 1.4776850548515e-05
0.46187821030617 0.17121851444244 1.4776850548515e-05
0.53704506158829 0.17121851444244 1.4776850548515e-05
0.6122784614563 0.17121851444244 1.4776850548515e-05
0.68498206138611 0.17121851444244 1.4776850548515e-05
0.75231391191483 0.17121851444244 1.4776850548515e-05
0.8121030330658 0.17121851444244 1.4776850548515e-05
0.86307334899902 0.17121851444244 1.4776850548515e-05
0.90484130382538 0.17121851444244 1.4776850548515e-05
0.93774908781052 0.17121851444244 1.4776850548515e-05
0.96262758970261 0.17121851444244 1.4776850548515e-05
0.98056095838547 0.17121851444244 1.4776850548515e-05
0.99270099401474 0.17153492569923 0.0017444373806939
1 0.20256592333317 0.076035276055336
1 0.27908599376678 0.20000441372395
1 0.40913864970207 0.36762076616287
1 0.45082679390907 0.41634041070938
1 0.45082679390907 0.41634041070938
1.4776850548515e-05 0.21396876871586 1.4776850548515e-05
1.4776850548515e-05 0.21396876871586 1.4776850548515e-05
0.0083881467580795 0.21396876871586 1.4776850548515e-05
0.018953621387482 0.21396876871586 1.4776850548515e-05
0.029196513816714 0.21396876871586 1.4776850548515e-05
0.039661563932896 0.21396876871586 1.4776850548515e-05
0.051190692931414 0.21396876871586 1.4776850548515e-05
0.065737754106522 0.21396876871586 1.4776850548515e-05
0.084116838872433 0.21396876871586 1.4776850548515e-05
0.10719221830368 0.21396876871586 1.4776850548515e-05
0.13590911030769 0.21396876871586 1.4776850548515e-05
0.17121851444244 0.21396876871586 1.4776850548515e-05
0.21396876871586 0.21396876871586 1.4776850548515e-05
0.26471933722496 0.21396876871586 1.4776850548515e-05
0.32353132963181 0.21396876871586 1.4776850548515e-05
0.38975355029106 0.21396876871586 1.4776850548515e-05
0.46187821030617 0.21396876871586 1.4776850548515e-05
0.53704506158829 0.21396876871586 1.4776850548515e-05
0.6122784614563 0.21396876871586 1.4776850548515e-05
0.68498206138611 0.21396876871586 1.4776850548515e-05
0.75231391191483 0.21396876871586 1.4776850548515e-05
0.8121030330658 0.21396876871586 1.4776850548515e-05
0.86307334899902 0.21396876871586 1.4776850548515e-05
0.90484130382538 0.21396876871586 1.4776850548515e-05
0.93774908781052 0.21396876871586 1.4776850548515e-05
0.96262758970261 0.21396876871586 1.4776850548515e-05
0.98056095838547 0.21396876871586 1.4776850548515e-05
0.99270099401474 0.21423034369946 0.0017444373806939
1 0.23920358717442 0.076035276055336
1 0.30700385570526 0.20000441372395
1 0.42480823397636 0.36762076616287
1 0.46434450149536 0.41634041070938
1 0.46434450149536 0.41634041070938
1.4776850548515e-05 0.26471933722496 1.4776850548515e-05
1.4776850548515e-05 0.26471933722496 1.4776850548515e-05
0.0083881467580795 0.26471933722496 1.4776850548515e-05
0.018953621387482 0.26471933722496 1.4776850548515e-05
0.029196513816714 0.26471933722496 1.4776850548515e-05
0.039661563932896 0.26471933722496 1.4776850548515e-05
0.051190692931414 0.26471933722496 1.4776850548515e-05
0.065737754106522 0.26471933722496 1.4776850548515e-05
0.084116838872433 0.26471933722496 1.4776850548515e-05
0.10719221830368 0.26471933722496 1.4776850548515e-05
0.13590911030769 0.26471933722496 1.4776850548515e-05
0.17121851444244 0.26471933722496 1.4776850548515e-05
0.21396876871586 0.26471933722496 1.4776850548515e-05
0.26471933722496 0.26471933722496 1.4776850548515e-05
0.32353132963181 0.26471933722496 1.4776850548515e-05
0.38975355029106 0.26471933722496 1.4776850548515e-05
0.46187821030617 0.26471933722496 1.4776850548515e-05
0.53704506158829 0.26471933722496 1.4776850548515e-05
0.6122784614563 0.26471933722496 1.4776850548515e-05
0.68498206138611 0.26471933722496 1.4776850548515e-05
0.75231391191483 0.26471933722496 1.4776850548515e-05
0.8121030330658 0.26471933722496 1.4776850548515e-05
0.86307334899902 0.26471933722496 1.4776850548515e-05
0.90484130382538 0.26471933722496 1.4776850548515e-05
0.93774908781052 0.26471933722496 1.4776850548515e-05
0.96262758970261 0.26471933722496 1.4776850548515e-05
